!!!!SEGMENT: pl-sa--168-a-iv-18--003_luna-georgius--missa-credo.krn
!!!cenid: 17xx:516
!!!COM: Luna, Georgius
!!!COM-rismid: pe41010079
!!!CDT:
!!!CNT:
!!!OPR: Missa
!!!OTL: Credo
!!!OMV: 003
!!!PDT:
!!!AGN: Sacred; Mass
!!!SMS-siglum: PL-SA
!!!SMS-shelfmark: 168/A IV 18
!!!SMS-shelfwork: 001-003 M
!!!SMS-variant:
!!!SMS-altvar:
!!!NIFC-rismid: 1001070167
!!!URL-scan: http://bc.bdsandomierz.pl/dlibra/publication/1554/edition/1522/content
!!!ONB-nifc: UWAGA: części Mszy: Kirie, Gloria, Credo, Sanctus, Benedictus, Agnus Dei
!!!key:
**kern	**dynam	**kern	**dynam	**kern	**dynam	**kern	**text	**kern	**text	**kern	**text
*part6	*part6	*part5	*part5	*part4	*part4	*part3	*part3	*part2	*part2	*part1	*part1
*group2	*	*group2	*	*group2	*	*group1	*	*group1	*	*group1	*
*staff7	*	*staff5	*	*staff4	*	*staff3	*staff3	*staff2	*staff2	*staff1	*staff1
*Iempty	*	*Ivioln	*	*Ivioln	*	*Iempty	*	*Itenor	*	*Ivox	*
*	*	*I"Violino Secundo	*	*I"Violino Primo	*	*I"Baſso	*	*I"Tenore	*	*I"Canto	*
*I'C-b.	*	*I'Vn II	*	*I'Vn I	*	*I'B.	*	*I'T.	*	*I'C.	*
*clefF4	*	*clefG2	*	*clefG2	*	*clefF4	*	*clefC4	*	*clefC1	*
*Trd0c0	*	*	*	*	*	*	*	*	*	*	*
*k[f#]	*	*k[f#]	*	*k[f#]	*	*k[f#]	*	*k[f#]	*	*k[f#]	*
*G:	*	*G:	*	*G:	*	*G:	*	*G:	*	*G:	*
*M3/4	*	*M3/4	*	*M3/4	*	*M3/4	*	*M3/4	*	*M3/4	*
=1	=1	=1	=1	=1	=1	=1	=1	=1	=1	=1	=1
!LO:TX:a:t=Allo Solo	!	!LO:TX:a:t=allo	!	!LO:TX:a:t=Allo	!	!LO:TX:a:t=Allo	!	!LO:TX:a:t=allegro	!	!LO:TX:a:t=allo.	!
!LO:TX:b:t=Credo	!	!LO:TX:b:t=Credo	!	!LO:TX:b:t=Credo	!	!	!	!	!	!	!
!LO:TX:a:t=P:problem:brak nazwy głosu	!	!	!	!	!	!	!	!	!	!	!
4G\	.	8ggL 8b 8d 8G/	.	8ggL 8b 8d/	.	4G\	Cre-	4G\	Cre-	4b\	Cre-
.	.	16d/L	.	16g/L	.	.	.	.	.	.	.
.	.	16d/JJ	.	16g/JJ	.	.	.	.	.	.	.
8G\L	.	16g/LL	.	16b\LL	.	8G\	-do	8G\	-do	8b\	-do
.	.	16g/	.	16b\	.	.	.	.	.	.	.
8G\	.	16b/	.	16dd\	.	8G\	in	8G\	in	8b\	in
.	.	16b/JJ	.	16dd\JJ	.	.	.	.	.	.	.
8G\	.	16dd\LL	.	16gg\LL	.	8G\	u-	8G\	u-	8b\	u-
.	.	16dd\	.	16gg\	.	.	.	.	.	.	.
8G\J	.	16gg\	.	16bb\	.	8G\	-num	8B\	-num	8dd\	-num
.	.	16gg\JJ	.	16bb\JJ	.	.	.	.	.	.	.
=2	=2	=2	=2	=2	=2	=2	=2	=2	=2	=2	=2
.	.	8qqb/	.	8qqdd/	.	.	.	.	.	8qqdd/	.
4d\	.	4a/	.	4cc\	.	4d\	De-	4A\	De-	4cc\	De-
4G\	.	8g/L	.	8b\L	.	8G\	-um	8G\	-um	8b\	-um
.	.	16b/L	.	16dd\L	.	8G\	in	8G\	in	8b\	in
.	.	16b/JJ	.	16dd\JJ	.	.	.	.	.	.	.
8r	.	16dd\LL	.	16gg\LL	.	8G\	u-	8G\	u-	8b\	u-
.	.	16dd\	.	16gg\	.	.	.	.	.	.	.
8G\	.	16gg\	.	16bb\	.	8G\	-num	8B\	-num	8dd\	-num
.	.	16gg\JJ	.	16bb\JJ	.	.	.	.	.	.	.
=3	=3	=3	=3	=3	=3	=3	=3	=3	=3	=3	=3
.	.	8qqb/	.	8qqdd/	.	.	.	8qqB/	.	8qqdd/	.
4d\	.	4a/	.	4cc\	.	4d\	De-	4A\	De-	4cc\	De-
4G\	.	4g/	.	4b\	.	4G\	-um	4G\	-um	4b\	-um
4GG/	.	4r	.	4r	.	4r	.	4r	.	4r	.
=4	=4	=4	=4	=4	=4	=4	=4	=4	=4	=4	=4
8c\L	.	8ee\L	.	16ee\LL	.	4c\	Pa-	4d\	Pa-	4ee\	pa-
.	.	.	.	16ee\	.	.	.	.	.	.	.
8c\	.	8ee\	.	16ccc\	.	.	.	.	.	.	.
.	.	.	.	16ccc\JJ	.	.	.	.	.	.	.
8c\	.	8ee\	.	16gg#X\LL	.	8c\	-trem	8G#X\	-trem	8ee\	-trem
.	.	.	.	16gg#\	.	.	.	.	.	.	.
8c\	.	8ee\	.	16aa\	.	8c\	o-	8A\	o-	8ee\	o-
.	.	.	.	16aa\JJ	.	.	.	.	.	.	.
8c\	.	8ee\	.	4aa\	.	8c\	-mni-	8A\	-mni-	8ee\	-mni-
8c\J	.	8ee\J	.	.	.	8c\	-po-	8A\	-po-	8ee\	-po-
=5	=5	=5	=5	=5	=5	=5	=5	=5	=5	=5	=5
8B\L	.	8dd\L	.	16dd\LL	.	4B\	-ten-	4B\	-ten-	4dd\	-ten-
.	.	.	.	16dd\	.	.	.	.	.	.	.
!	!	!	!	!LO:TX:a:t=P:problem:dodatkowe zamazane nuty	!	!	!	!	!	!	!
8B\	.	8dd\	.	16bb\	.	.	.	.	.	.	.
.	.	.	.	16bb\JJ	.	.	.	.	.	.	.
8B\	.	8dd\	.	16ff#\LL	.	8B\	-tem	8F#/	-tem	8dd\	-tem
.	.	.	.	16ff#\	.	.	.	.	.	.	.
8B\	.	8dd\	.	16ggn\	.	8B\	fac-	8Gn/	fac-	8dd\	fa-
.	.	.	.	16gg\JJ	.	.	.	.	.	.	.
8B\	.	8dd\	.	4gg\	.	8B\	-to-	8G/	-to-	8dd\	-cto-
8B\J	.	8dd\J	.	.	.	8B\	-re(m)	8G/	-rem	8dd\	-rem
=6	=6	=6	=6	=6	=6	=6	=6	=6	=6	=6	=6
4A\	.	16a\LL	.	16cc\LL	.	4A\	ce-	4F#/	ce-	4cc\	ce-
.	.	16a\	.	16cc\	.	.	.	.	.	.	.
.	.	16cc\	.	16aa\	.	.	.	.	.	.	.
.	.	16cc\JJ	.	16aa\JJ	.	.	.	.	.	.	.
4D\	.	16f#/LL	.	16a\LL	.	4D\	-li	4A/	-li	4cc\	-li
.	.	16f#/	.	16a\	.	.	.	.	.	.	.
.	.	16a/	.	16cc\	.	.	.	.	.	.	.
.	.	16a/JJ	.	16cc\JJ	.	.	.	.	.	.	.
4G\	.	16g/LL	.	16b\LL	.	4G\	et	4G/	et	4b\	et
.	.	16g/	.	16b\	.	.	.	.	.	.	.
.	.	16b/	.	16gg\	.	.	.	.	.	.	.
.	.	16b/JJ	.	16gg\JJ	.	.	.	.	.	.	.
!	!	!	!	!	!	!LO:LB:g=original	!	!	!	!LO:LB:g=original	!
=7	=7	=7	=7	=7	=7	=7	=7	=7	=7	=7	=7
*	*	*	*	*	*	*	*	*	*	*2\right	*
4G\	.	16a\LL	.	16cc\LL	.	4A\	ter-	4F#/	ter-	2cc\	ter-
.	.	16a\	.	16cc\	.	.	.	.	.	.	.
.	.	16cc\	.	16aa\	.	.	.	.	.	.	.
.	.	16cc\JJ	.	16aa\JJ	.	.	.	.	.	.	.
!	!	!	!	!LO:LB:g=original	!	!	!	!	!	!	!
4D\	.	16f#/LL	.	16a\LL	.	4D\	.	4A/	.	.	.
.	.	16f#/	.	16a\	.	.	.	.	.	.	.
.	.	16a/	.	16cc\	.	.	.	.	.	.	.
.	.	16a/JJ	.	16cc\JJ	.	.	.	.	.	.	.
4G\	.	16g/LL	.	16b\LL	.	4G\	-re	4G/	-re	4b\	-re
.	.	16g/	.	16b\	.	.	.	.	.	.	.
.	.	16b/	.	16gg\	.	.	.	.	.	.	.
.	.	16b/JJ	.	16gg\JJ	.	.	.	.	.	.	.
!	!	!LO:LB:g=original	!	!	!	!	!	!LO:LB:g=original	!	!	!
=8	=8	=8	=8	=8	=8	=8	=8	=8	=8	=8	=8
4G\	.	8g/L	.	8b\L	.	4G\	et	4G/	et	4b\	et
.	.	8b/J	.	8aa\J	.	.	.	.	.	.	.
4d\	.	4f#/	.	4d/	.	4d\	ter-	2F#/	ter-	2a\	ter-
4D\	.	4a/	.	4ff#\	.	4D\	.	.	.	.	.
=9	=9	=9	=9	=9	=9	=9	=9	=9	=9	=9	=9
!LO:TX:a:t=Solo.	!	!	!	!	!	!	!	!	!	!	!
4G\	.	8b/L	.	8gg\L	.	4G\	-re	4G/	-re	4b\	-re
.	.	16b/L	.	16dd\L	.	.	.	.	.	.	.
.	.	16a/JJ	.	16cc\JJ	.	.	.	.	.	.	.
.	.	8qqa/	.	8qqcc/	.	.	.	.	.	.	.
4GG/	.	4.g/	.	4.b\	.	4r	.	4r	.	4r	.
4GG/	.	.	.	.	.	4r	.	4r	.	4r	.
.	.	8a/	.	8cc\	.	.	.	.	.	.	.
=10	=10	=10	=10	=10	=10	=10	=10	=10	=10	=10	=10
!	!	!	!	!	!	!LO:N:vis=00	!	!LO:N:vis=00	!	!LO:N:vis=00	!
4GG/	.	(16b/LL	.	16dd\LL	.	0.r	.	0.r	.	0.r	.
.	.	16a/)	.	16cc\	.	.	.	.	.	.	.
.	.	(16b/	.	16dd\	.	.	.	.	.	.	.
.	.	16a/JJ)	.	16cc\JJ	.	.	.	.	.	.	.
.	.	8qqa/	.	8qqcc/	.	.	.	.	.	.	.
*	*	*	*	*2\right	*	*	*	*	*	*	*
4GG/	.	2g/	.	2b\	.	.	.	.	.	.	.
4GG/	.	.	.	.	.	.	.	.	.	.	.
=11	=11	=11	=11	=11	=11	=11	=11	=11	=11	=11	=11
!	!LO:DY:a	!	!	!	!LO:DY:a	!	!	!	!	!	!
4GG/	p	8b/L	.	8gg\L	p	.	.	.	.	.	.
.	.	16b/L	.	(16dd\L	.	.	.	.	.	.	.
.	.	16a/JJ	.	16cc\JJ)	.	.	.	.	.	.	.
.	.	8qqa/	.	8qqcc/	.	.	.	.	.	.	.
4GG/	.	4.g/	.	4.b\	.	.	.	.	.	.	.
4GG/	.	.	.	.	.	.	.	.	.	.	.
.	.	8a/	.	8cc\	.	.	.	.	.	.	.
=12	=12	=12	=12	=12	=12	=12	=12	=12	=12	=12	=12
!LO:TX:a:t=P:problem:takt zapisany repetycją	!LO:DY:a	!	!	!	!	!	!	!	!	!	!
4GG/yy	p	(16b/LL	.	(16dd\LL	.	.	.	.	.	.	.
.	.	16a/)	.	16cc\)	.	.	.	.	.	.	.
.	.	(16b/	.	(16dd\	.	.	.	.	.	.	.
.	.	16a/JJ)	.	16cc\JJ)	.	.	.	.	.	.	.
.	.	8qqa/	.	8qqcc/	.	.	.	.	.	.	.
4GG/yy	.	2g/	.	2b\	.	.	.	.	.	.	.
4GG/yy	.	.	.	.	.	.	.	.	.	.	.
=13	=13	=13	=13	=13	=13	=13	=13	=13	=13	=13	=13
!	!LO:DY:a	!	!	!	!LO:DY:a	!	!	!	!	!	!
4D\	f	16a/LL	.	16cc/LL	f	.	.	.	.	.	.
.	.	16A/	.	16d/	.	.	.	.	.	.	.
.	.	16d/	.	16f#/	.	.	.	.	.	.	.
.	.	16f#/JJ	.	16a/JJ	.	.	.	.	.	.	.
8r	.	8a/L	.	8cc\L	.	.	.	.	.	.	.
8D\L	.	8a/J	.	8cc\J	.	.	.	.	.	.	.
8F#\	.	4a/	.	4cc\	.	.	.	.	.	.	.
8D\J	.	.	.	.	.	.	.	.	.	.	.
=14	=14	=14	=14	=14	=14	=14	=14	=14	=14	=14	=14
4G\	.	8g/L	.	8b\L	.	2.r	.	2.r	.	2.r	.
.	.	8b/J	.	8gg'\J	.	.	.	.	.	.	.
4d\	.	4d/	.	4d'/	.	.	.	.	.	.	.
4D\	.	4a/	.	4ff#\	.	.	.	.	.	.	.
=15	=15	=15	=15	=15	=15	=15	=15	=15	=15	=15	=15
!LO:TX:a:t=Tutti	!	!	!	!LO:TX:a:t=P:problem:mixed beam	!	!	!	!	!	!	!
4G\	.	8b/L	.	8gg\L	.	4G\	vi-	4d\	vi-	4b\	vi-
.	.	16d/L	.	16g/L	.	.	.	.	.	.	.
.	.	16d/JJ	.	16g/JJ	.	.	.	.	.	.	.
*	*	*	*	*	*	*2\right	*	*2\right	*	*	*
4G\	.	16g\LL	.	16b\LL	.	2G\	-si-	2d\	-si-	2b\	-si-
.	.	16g\	.	16b\	.	.	.	.	.	.	.
.	.	16b\	.	16dd\	.	.	.	.	.	.	.
.	.	16b\JJ	.	16dd\JJ	.	.	.	.	.	.	.
4G\	.	16dd\LL	.	16gg\LL	.	.	.	.	.	.	.
.	.	16dd\	.	16gg\	.	.	.	.	.	.	.
.	.	16gg\	.	16bb\	.	.	.	.	.	.	.
.	.	16gg\JJ	.	16bb\JJ	.	.	.	.	.	.	.
!	!	!	!	!LO:LB:g=original	!	!	!	!	!	!	!
=16	=16	=16	=16	=16	=16	=16	=16	=16	=16	=16	=16
!	!	!LO:TX:a:t=P:problem:mixed beam	!	!LO:TX:a:t=P:problem:mixed beam	!	!	!	!	!	!	!
4D\	.	8ff#\L	.	8aa\L	.	4D\	-bi-	4f#\	-bi-	4a\	-bi-
.	.	16d/L	.	16f#/L	.	.	.	.	.	.	.
.	.	16d/JJ	.	16f#/JJ	.	.	.	.	.	.	.
!	!	!LO:LB:g=original	!	!	!	!	!	!	!	!	!
4D\	.	16f#/LL	.	16a\LL	.	4D\	-li-	4f#\	-li-	4a\	-li-
.	.	16f#/	.	16a\	.	.	.	.	.	.	.
.	.	16a/	.	16dd\	.	.	.	.	.	.	.
.	.	16a/JJ	.	16dd\JJ	.	.	.	.	.	.	.
4D\	.	16dd\LL	.	16ff#\LL	.	4D\	-um	4f#\	-um	4a\	-um
.	.	16dd\	.	16ff#\	.	.	.	.	.	.	.
.	.	16ff#\	.	16gg\	.	.	.	.	.	.	.
.	.	16ff#\JJ	.	16gg\JJ	.	.	.	.	.	.	.
!LO:LB:g=original	!	!	!	!	!	!	!	!	!	!	!
=17	=17	=17	=17	=17	=17	=17	=17	=17	=17	=17	=17
!	!	!LO:TX:a:t=P:problem:mixed beam	!	!LO:TX:a:t=P:problem:mixed beam	!	!	!	!	!	!	!
4AA/	.	8ee\L	.	8gg\L	.	2A\	o-	2c#X\	o-	2g\	o-
.	.	16c#X/L	.	16e/L	.	.	.	.	.	.	.
.	.	16c#/JJ	.	16e/JJ	.	.	.	.	.	.	.
4AA/	.	16e/LL	.	16g/LL	.	.	.	.	.	.	.
.	.	16e/	.	16g/	.	.	.	.	.	.	.
.	.	16g/	.	16cc#X/	.	.	.	.	.	.	.
.	.	16g/JJ	.	16cc#/JJ	.	.	.	.	.	.	.
4AA/	.	16cc\LL	.	16ee\LL	.	4AA/	-mni-	4c#\	-mni-	4g\	-mni-
.	.	16cc\	.	16ee\	.	.	.	.	.	.	.
.	.	16ee\	.	16gg\	.	.	.	.	.	.	.
.	.	16ee\JJ	.	16gg\JJ	.	.	.	.	.	.	.
=18	=18	=18	=18	=18	=18	=18	=18	=18	=18	=18	=18
4D\	.	4a/	.	8ff#\L	.	4D\	-um	4d\	-um	4f#/	-um
.	.	.	.	8aa\	.	.	.	.	.	.	.
4F#\	.	4a/	.	8ff#\	.	8F#\	et	8d\	et	8a\	et
.	.	.	.	8dd\	.	8F#\	in-	8d\	in-	8a\	in
4D\	.	4f#/	.	8aa\	.	8D\	-vi-	8d\	-vi-	8a\	vi-
.	.	.	.	8ccn\J	.	8D\	-si-	8d\	-si-	8a\	-si-
=19	=19	=19	=19	=19	=19	=19	=19	=19	=19	=19	=19
4G\	.	4d/	.	8b\L	.	4G\	-bi-	2d\	-bi-	2b\	-bi-
.	.	.	.	8bb\	.	.	.	.	.	.	.
4G#X\	.	4b/	.	8gg#X\	.	4G#X\	.	.	.	.	.
.	.	.	.	8ee\	.	.	.	.	.	.	.
4E\	.	4a#X/	.	8bb\	.	4E\	-li-	4B\	-li-	8ee\L	-li-
.	.	.	.	8dd\J	.	.	.	.	.	8dd\J	.
!	!	!	!	!	!	!LO:LB:g=original	!	!	!	!	!
=20	=20	=20	=20	=20	=20	=20	=20	=20	=20	=20	=20
!	!	!LO:TX:a:t=P:problem:mixed beam	!	!	!	!	!	!	!	!	!
4A\	.	8e/L	.	8cc#X\L	.	4A\	-um	4E/	-um	4cc#X\	-um
.	.	8cc#X\	.	8ee\	.	.	.	.	.	.	.
4C#X/	.	8a\	.	8cc#\	.	4A\	et	4c#X\	et	4ee\	et
.	.	8e\J	.	8a\	.	.	.	.	.	.	.
4AA/	.	8cc#X\L	.	8ee\	.	4A\	in-	4c#\	in-	4ee\	in-
!	!	!	!	!	!	!	!	!	!	!LO:TX:b:t=Seg.	!
.	.	8ee\J	.	8gg\J	.	.	.	.	.	.	.
!	!	!	!	!	!	!	!	!	!	!LO:PB:g=original	!
=21	=21	=21	=21	=21	=21	=21	=21	=21	=21	=21	=21
8D\L	.	8a/L	.	8ff#\L	.	8D\	-vi-	8A\	-vi-	8ff#\	-vi-
8G\J	.	16b/L	.	16gg\L	.	8G\	-si-	16B\LL	-si-	(16gg\LL	-si-
.	.	16a/JJ	.	16ee\JJ	.	.	.	16A\JJ	.	16ee\JJ)	.
4A\	.	4f#/	.	4dd\	.	4A\	-bi-	4F#/	-bi-	4dd\	-bi-
4AA/	.	4g/	.	4ee\	.	4AA/	-li-	4G/	-li-	4eeT\	-li-
!	!	!	!	!	!	!	!	!LO:LB:g=original	!	!	!
=22	=22	=22	=22	=22	=22	=22	=22	=22	=22	=22	=22
!	!	!LO:TX:a:t=P:problem:mixed beam	!	!	!	!	!	!	!	!	!
8D\L	.	8f#/L	.	8dd\L	.	4D\	-um	4F#/	-um	4dd\	-um
8d\	.	8dd\	.	8dd\	.	.	.	.	.	.	.
8B\	.	8a\	.	8a\	.	4r	.	4r	.	4r	.
8F#\J	.	8f#\J	.	8f#\J	.	.	.	.	.	.	.
4D\	.	4d/	.	4d/	.	4r	.	4r	.	4r	.
=23	=23	=23	=23	=23	=23	=23	=23	=23	=23	=23	=23
*2\right	*	*	*	*	*	*	*	*	*	*	*
!LO:TX:a:t=Solo	!	!	!LO:DY:a	!	!LO:DY:a	!LO:N:vis=00	!	!	!	!LO:N:vis=00	!
2.D\	.	4f#/	p	4a\	p	0.r	.	4A\	et	0.r	.
!	!	!	!	!	!	!	!	!LO:TX:a:t=solo	!	!	!
.	.	(8f#/L	.	(8dd\L	.	.	.	8d\L	in	.	.
.	.	8e/)	.	8cc#X\)	.	.	.	8c\J	.	.	.
.	.	(8g/	.	(8ee\	.	.	.	8e\	u-	.	.
.	.	8f#/J)	.	8dd\J)	.	.	.	8d\	-num	.	.
=24	=24	=24	=24	=24	=24	=24	=24	=24	=24	=24	=24
2.D\	.	4f#/	.	4a/	.	.	.	4A\	Do-	.	.
.	.	(8dd\L	.	(8ff#\L	.	.	.	8f#\	-mi-	.	.
.	.	8cc#X\)	.	8ee\)	.	.	.	8e\	-num	.	.
.	.	(8ee\	.	(8gg\	.	.	.	8g\	je-	.	.
.	.	8dd\J)	.	8ff#\J)	.	.	.	8f#\	-sum	.	.
!	!	!	!	!LO:LB:g=original	!	!	!	!	!	!	!
=25	=25	=25	=25	=25	=25	=25	=25	=25	=25	=25	=25
4G\	.	4b/	.	4ee\	.	.	.	4e\	Chriſ-	.	.
4A\	.	8a/L	.	(8ff#\L	.	.	.	8g\L	.	.	.
.	.	8f#/J	.	8dd\)	.	.	.	8d\	.	.	.
.	.	8qqf#/	.	.	.	.	.	.	.	.	.
4AA/	.	4e/	.	(8cc#X\	.	.	.	8c#X\	.	.	.
.	.	.	.	8a\J)	.	.	.	8A\J	.	.	.
!	!	!LO:LB:g=original	!	!	!	!	!	!	!	!	!
=26	=26	=26	=26	=26	=26	=26	=26	=26	=26	=26	=26
4D/	.	4f#/	.	8dd\L	.	.	.	4d\	-tum	.	.
.	.	.	.	8a\	.	.	.	.	.	.	.
4AA/	.	8f#/L	.	8a\	.	.	.	4r	.	.	.
.	.	8e/J	.	8g\J	.	.	.	.	.	.	.
.	.	.	.	8qqg/	.	.	.	.	.	.	.
4D/	.	8r	.	4f#/	.	.	.	4r	.	.	.
.	.	8d/	.	.	.	.	.	.	.	.	.
=27	=27	=27	=27	=27	=27	=27	=27	=27	=27	=27	=27
!	!	!	!	!	!	!LO:N:vis=0	!	!	!	!LO:N:vis=0	!
4D\	.	4dd\	.	4ff#\	.	1.r	.	4f#\	Fi-	1.r	.
4A\	.	(8dd\L	.	(8ff#\L	.	.	.	8f#\L	-li-	.	.
.	.	8a\)	.	8dd\)	.	.	.	8d\J	.	.	.
4AA/	.	(8cc#X\	.	(8ee\	.	.	.	8e\L	-um	.	.
.	.	8ee\J)	.	8gg\J)	.	.	.	8g\J	.	.	.
=28	=28	=28	=28	=28	=28	=28	=28	=28	=28	=28	=28
4D\	.	4dd\	.	4ff#\	.	.	.	4f#\	De-	.	.
4A\	.	(8dd\L	.	(8ff#\L	.	.	.	8f#\L	-i	.	.
.	.	8a\)	.	8dd\)	.	.	.	8d\J	.	.	.
4AA/	.	(8cc#X\	.	(8ee\	.	.	.	8e\	u-	.	.
!	!	!	!	!	!	!	!	!LO:TX:b:t=Seg	!	!	!
.	.	8ee\J)	.	8gg\J)	.	.	.	8g\	-ni-	.	.
!	!	!	!	!	!	!	!	!LO:PB:g=original	!	!	!
=29	=29	=29	=29	=29	=29	=29	=29	=29	=29	=29	=29
!LO:TX:a:t=P:problem:takt zapisany repetycją	!	!	!	!	!	!	!	!	!	!	!
4D\yy	.	8a/L	.	8ff#\L	.	2.r	.	8f#\	-ge-	2.r	.
.	.	8b/J	.	8dd\J	.	.	.	8d\	.	.	.
.	.	8qqf#/	.	8qqdd/	.	.	.	8qqd/	.	.	.
4A\yy	.	2e/	.	2cc#X\	.	.	.	4.c#X\	.	.	.
4AA/yy	.	.	.	.	.	.	.	.	.	.	.
.	.	.	.	.	.	.	.	8c#\	-ni-	.	.
=30	=30	=30	=30	=30	=30	=30	=30	=30	=30	=30	=30
!LO:TX:a:t=Tuty	!	!	!	!LO:TX:a:t=P:problem:mixed beam	!	!	!	!	!	!	!
8D\L	.	8f#/L	.	8dd\L	.	4r	.	4d\	-tum	4r	.
8D\	.	16A/L	.	16d/L	.	.	.	.	.	.	.
.	.	16A/JJ	.	16d/JJ	.	.	.	.	.	.	.
8D\	.	16d/LL	.	16f#/LL	.	4D\	et	4F#/	et	4dd\	et
.	.	16d/	.	16f#/	.	.	.	.	.	.	.
8D\	.	16f#/	.	16a/	.	.	.	.	.	.	.
.	.	16f#/JJ	.	16a/JJ	.	.	.	.	.	.	.
8D\	.	16a/LL	.	16dd\LL	.	4D\	ex	4F#/	ex	4dd\	ex
.	.	16a/	.	16dd\	.	.	.	.	.	.	.
8D\J	.	16dd/	.	16ff#\	.	.	.	.	.	.	.
.	.	16dd/JJ	.	16ff#\JJ	.	.	.	.	.	.	.
=31	=31	=31	=31	=31	=31	=31	=31	=31	=31	=31	=31
8D\L	.	16ccn\LL	.	16aa\LL	.	8D\	pa-	8A/	pa-	8cc#X\	Pa-
.	.	16cc\	.	16aa\	.	.	.	.	.	.	.
8D\	.	16cc\	.	16aa\	.	8D\	-tre	8A/	-tre	8cc#\	-tre
.	.	16cc\JJ	.	16aa\JJ	.	.	.	.	.	.	.
8D\	.	16cc\LL	.	16aa\LL	.	2D\	na-	2A/	na-	2cc#\	na-
.	.	16cc\	.	16aa\	.	.	.	.	.	.	.
8D\	.	16cc\	.	16aa\	.	.	.	.	.	.	.
.	.	16cc\JJ	.	16aa\JJ	.	.	.	.	.	.	.
8D\	.	16cc\LL	.	16aa\LL	.	.	.	.	.	.	.
.	.	16cc\	.	16aa\	.	.	.	.	.	.	.
8D\J	.	16cc\	.	16aa\	.	.	.	.	.	.	.
.	.	16cc\JJ	.	16aa\JJ	.	.	.	.	.	.	.
!LO:LB:g=original	!	!	!	!	!	!	!	!	!	!	!
=32	=32	=32	=32	=32	=32	=32	=32	=32	=32	=32	=32
4G\	.	4b/	.	4gg\	.	4G\	-tum	4G/	-tum	4b\	-tum
8G\L	.	8g/L	.	8g/L	.	8G\	en-	8G/	an-	8g\	an-
8F#\	.	8f#/	.	8f#/	.	8F#\	-te	8F#/	-te	8f#/	-te
8G\	.	8g/	.	8g/	.	8G\L	o-	8G/L	om-	(8g\L	om-
8A\J	.	8a/J	.	8a/J	.	8A\J	.	8A/J	.	8a\J)	.
=33	=33	=33	=33	=33	=33	=33	=33	=33	=33	=33	=33
8B\L	.	8b/L	.	8b/L	.	8B\	-mni-	8B\	.	8b\	.
8A\	.	8a/	.	8a/	.	8A\	.	8A\	-ni-	8a\	-ni-
8G\	.	8g/	.	8g/	.	8G\L	-a	8G\L	-a-	8g\L	-a
8F#\	.	8f#/	.	8f#/	.	8F#\J	.	8F#\J	.	8f#\J	.
8G\	.	8g/	.	8g/	.	8G\L	se-	8G\L	-se-	8g\L	se-
8A\J	.	8a/J	.	8a/J	.	8A\J	.	8A\J	.	8a\J	.
!	!	!	!	!LO:LB:g=original	!	!LO:LB:g=original	!	!	!	!	!
=34	=34	=34	=34	=34	=34	=34	=34	=34	=34	=34	=34
8B\L	.	8b\L	.	8b/L	.	8A\	.	8B\	.	8b\	.
8A\	.	8a\	.	8a/	.	8A\	-cu-	8A\	-cu-	8a\	-cu-
8G\	.	8g\	.	8g/	.	8G\L	-la	8G\L	-la	8g\L	-la
8A\	.	8a\	.	8a/	.	8A\	.	8A\	.	8a\	.
8B\	.	8b\	.	8b/	.	8B\	.	8B\	.	8b\	.
8c#X\J	.	8cc#X\J	.	8cc#X/J	.	8c#X\J	.	8c\J	.	8cc#X\J	.
!	!	!LO:PB:g=original	!	!	!	!	!	!LO:LB:g=original	!	!LO:LB:g=original	!
=35	=35	=35	=35	=35	=35	=35	=35	=35	=35	=35	=35
!LO:TX:a:t=P:problem:mixed beam	!	!LO:TX:a:t=P:problem:mixed beam	!	!LO:TX:a:t=P:problem:mixed beam	!	!	!	!	!	!	!
8d\L	.	8dd\L	.	8dd\L	.	8d\	se-	8d\	se-	8dd\	sae-
8D/J	.	8d/J	.	8d/J	.	8D\	-cu-	8D/	-cu-	8d/	-cu-
4D/	.	4d/	.	4d/	.	4D\	-la	4D/	-la	4d/	-la
4r	.	4r	.	4r	.	4r	.	4r	.	4r	.
=36	=36	=36	=36	=36	=36	=36	=36	=36	=36	=36	=36
4D\	.	8ccn\L	.	8aa\L	.	4D\	De-	4A\	De-	4cc#X\	De-
.	.	16a\L	.	16ccn\L	.	.	.	.	.	.	.
.	.	16g\JJ	.	16b\JJ	.	.	.	.	.	.	.
8r	.	8a\L	.	8cc\L	.	4D\	-um	4A\	-um	4cc#\	-um
8D\L	.	8a\J	.	8cc\J	.	.	.	.	.	.	.
8F#\	.	4a\	.	4cc\	.	4D\	de	4A\	.	4cc#\	de
8D\J	.	.	.	.	.	.	.	.	.	.	.
=37	=37	=37	=37	=37	=37	=37	=37	=37	=37	=37	=37
4G\	.	8g/L	.	8b\L	.	2G\	de-	2G/	De-	2b\	de-
.	.	16b/L	.	16gg\L	.	.	.	.	.	.	.
.	.	16a/JJ	.	16ff#\JJ	.	.	.	.	.	.	.
8r	.	8b/L	.	8gg\L	.	.	.	.	.	.	.
8G\L	.	8b/J	.	8gg\J	.	.	.	.	.	.	.
8B\	.	4b/	.	4gg\	.	4G\	-o	4G/	-o	4b\	-o
8G\J	.	.	.	.	.	.	.	.	.	.	.
=38	=38	=38	=38	=38	=38	=38	=38	=38	=38	=38	=38
4D\	.	8cc/L	.	8aa\L	.	4D\	lu-	4A\	Lu-	4cc\	lu-
.	.	16a/L	.	16cc\L	.	.	.	.	.	.	.
.	.	16g/JJ	.	16b\JJ	.	.	.	.	.	.	.
8r	.	8a/L	.	8cc\L	.	4D\	-men	4A\	-men	4cc\	-men
8D\L	.	8a/J	.	8cc\J	.	.	.	.	.	.	.
8F#\	.	4a/	.	4cc\	.	4D\	de	4A\	de	4cc\	de
8D\J	.	.	.	.	.	.	.	.	.	.	.
=39	=39	=39	=39	=39	=39	=39	=39	=39	=39	=39	=39
4G\	.	8g/L	.	8b\L	.	4.G\	lu-	4.G/	Lu-	4.b\	lu-
.	.	16b/L	.	16gg\L	.	.	.	.	.	.	.
.	.	16a/JJ	.	16ff#\JJ	.	.	.	.	.	.	.
8r	.	8b/L	.	8gg\L	.	.	.	.	.	.	.
8G\L	.	8b/J	.	8gg\J	.	8G\	-mi-	8G/	-mi-	8b\	-mi-
8B\	.	4b/	.	4gg\	.	4G\	-ne	4G/	-ne	4b\	-ne
8G\J	.	.	.	.	.	.	.	.	.	.	.
=40	=40	=40	=40	=40	=40	=40	=40	=40	=40	=40	=40
4c\	.	4g/	.	8ee\L	.	4c\	De-	4G/	De-	4ee\	De-
.	.	.	.	16gg\L	.	.	.	.	.	.	.
.	.	.	.	16ee\JJ	.	.	.	.	.	.	.
4G\	.	8b/L	.	8dd\L	.	4F#\	-um	4B/	-um	4dd\	-um
.	.	8b/	.	8dd\	.	.	.	.	.	.	.
4r	.	(8a/	.	8cc\	.	4r	.	4r	.	4r	.
.	.	8g/J)	.	8b\J	.	.	.	.	.	.	.
!	!	!	!	!	!	!LO:PB:g=original	!	!	!	!	!
=41	=41	=41	=41	=41	=41	=41	=41	=41	=41	=41	=41
4D\	.	8a/L	.	8cc\L	.	4D\	ve-	4A/	ve-	4cc\	ve-
.	.	16cc/L	.	16aa\L	.	.	.	.	.	.	.
.	.	16a/JJ	.	16cc\JJ	.	.	.	.	.	.	.
4G\	.	4g/	.	4b\	.	4G\	-rum	4G/	-rum	4b\	-rum
4F#\	.	4a/	.	4cc\	.	4F#\	de	4A/	de	4cc\	de
=42	=42	=42	=42	=42	=42	=42	=42	=42	=42	=42	=42
4G\	.	8g/L	.	8b\L	.	8G\	de-	8G/	de-	8b\	De-
.	.	8b/J	.	8gg\J	.	8G\	-o	8G/	-o	8b\	-o
4d\	.	4d/	.	4d/	.	4d\	ve-	2F#/	ve-	2a\	ve-
4D\	.	4a/	.	4ff#\	.	4D\	.	.	.	.	.
!LO:LB:g=original	!	!	!	!	!	!	!	!	!	!	!
=43	=43	=43	=43	=43	=43	=43	=43	=43	=43	=43	=43
!LO:TX:a:t=Solo	!	!	!LO:DY:a	!	!	!	!	!	!	!	!
4GG/	.	8b/L	p	8gg\L	.	4G\	-ro	4G/	-ro	4b\	-ro
.	.	16b/L	.	(16dd\L	.	.	.	.	.	.	.
.	.	16a/JJ	.	16cc\JJ)	.	.	.	.	.	.	.
.	.	8qqa/	.	8qqcc/	.	.	.	.	.	.	.
4GG/	.	4.g/	.	4.b\	.	4r	.	4r	.	4r	.
4GG/	.	.	.	.	.	4r	.	4r	.	4r	.
.	.	8a/	.	8cc\	.	.	.	.	.	.	.
!	!	!	!	!	!	!	!	!LO:LB:g=original	!	!LO:LB:g=original	!
=44	=44	=44	=44	=44	=44	=44	=44	=44	=44	=44	=44
!	!	!	!	!	!	!LO:N:vis=00	!	!LO:N:vis=00	!	!LO:N:vis=00	!
4GG/	.	(16b/LL	.	(16dd\LL	.	0.r	.	0.r	.	0.r	.
.	.	16a/)	.	16cc\)	.	.	.	.	.	.	.
.	.	(16b/	.	(16dd\	.	.	.	.	.	.	.
.	.	16a/JJ)	.	16cc\JJ)	.	.	.	.	.	.	.
.	.	8qqa/	.	8qqcc/	.	.	.	.	.	.	.
4GG/	.	2g/	.	2b\	.	.	.	.	.	.	.
4GG/	.	.	.	.	.	.	.	.	.	.	.
!	!	!LO:LB:g=original	!	!LO:LB:g=original	!	!	!	!	!	!	!
=45	=45	=45	=45	=45	=45	=45	=45	=45	=45	=45	=45
!	!	!	!	!	!LO:DY:a	!	!	!	!	!	!
4GG/	.	8b/L	.	8gg\L	p	.	.	.	.	.	.
.	.	16b/L	.	(16dd\L	.	.	.	.	.	.	.
.	.	16a/JJ	.	16cc\JJ)	.	.	.	.	.	.	.
.	.	8qqa/	.	.	.	.	.	.	.	.	.
!	!	!LO:N:vis=4	!	!	!	!	!	!	!	!	!
4GG/	.	4.g/	.	4.b\	.	.	.	.	.	.	.
4GG/	.	.	.	.	.	.	.	.	.	.	.
.	.	8a/	.	8cc\	.	.	.	.	.	.	.
=46	=46	=46	=46	=46	=46	=46	=46	=46	=46	=46	=46
4GG/	.	(16b/LL	.	(16dd\LL	.	.	.	.	.	.	.
.	.	16a/)	.	16cc\)	.	.	.	.	.	.	.
.	.	(16b/	.	(16dd\	.	.	.	.	.	.	.
.	.	16a/JJ)	.	16cc\JJ)	.	.	.	.	.	.	.
.	.	8qqa/	.	8qqcc/	.	.	.	.	.	.	.
4GG/	.	2g/	.	2b\	.	.	.	.	.	.	.
4GG/	.	.	.	.	.	.	.	.	.	.	.
=47	=47	=47	=47	=47	=47	=47	=47	=47	=47	=47	=47
!	!	!	!LO:DY:a	!LO:TX:a:t=P:problem:mixed beam	!LO:DY:a	!	!	!	!	!	!
4D\	.	16a/LL	f	16cc\LL	f	.	.	.	.	.	.
.	.	16A/	.	16d/	.	.	.	.	.	.	.
.	.	16d/	.	16f#/	.	.	.	.	.	.	.
.	.	16f#/JJ	.	16a/JJ	.	.	.	.	.	.	.
8r	.	8a\L	.	8cc\L	.	.	.	.	.	.	.
8D\L	.	8a\J	.	8cc\J	.	.	.	.	.	.	.
8F#\	.	4a\	.	4cc\	.	.	.	.	.	.	.
8D\J	.	.	.	.	.	.	.	.	.	.	.
=48	=48	=48	=48	=48	=48	=48	=48	=48	=48	=48	=48
!	!	!	!	!	!	!LO:N:vis=0	!	!LO:N:vis=00	!	!LO:N:vis=00	!
4G\	.	8g/L	.	8b\L	.	1.r	.	0.r	.	0.r	.
.	.	8b/J	.	8gg\J	.	.	.	.	.	.	.
4d\	.	4d/	.	4d/	.	.	.	.	.	.	.
4D\	.	4a/	.	4ff#\	.	.	.	.	.	.	.
=49	=49	=49	=49	=49	=49	=49	=49	=49	=49	=49	=49
4G\	.	4b/	.	4gg\	.	.	.	.	.	.	.
8G\L	.	8g/L	.	8g/L	.	.	.	.	.	.	.
8A\	.	8a/	.	8a/	.	.	.	.	.	.	.
8G\	.	8g/	.	8g/	.	.	.	.	.	.	.
8F#\J	.	8f#/J	.	8f#/J	.	.	.	.	.	.	.
=50	=50	=50	=50	=50	=50	=50	=50	=50	=50	=50	=50
!	!	!	!	!	!	!LO:TX:a:t=Solo	!	!	!	!	!
4E\	.	4e/	.	4e/	.	4r	.	.	.	.	.
8E\L	.	8e/L	.	8e/L	.	8E\	ge-	.	.	.	.
8F#\	.	8f#/	.	8f#/	.	8F#\	-ni-	.	.	.	.
8G\	.	8g/	.	8g/	.	8G\	-tum	.	.	.	.
8A\J	.	8a/J	.	8a/J	.	8A\	non	.	.	.	.
=51	=51	=51	=51	=51	=51	=51	=51	=51	=51	=51	=51
4B\	.	4b\	.	4b\	.	4B\	fac-	.	.	.	.
4c\	.	4cc\	.	4cc\	.	4c\	-tum	.	.	.	.
8r	.	8r	.	8r	.	8r	.	.	.	.	.
8A#X\	.	8a#X\	.	8a#X/	.	8A#X\	non	.	.	.	.
=52	=52	=52	=52	=52	=52	=52	=52	=52	=52	=52	=52
!	!	!	!	!	!	!	!	!LO:N:vis=00	!	!LO:N:vis=00	!
4B\	.	4b\	.	4b\	.	4B\	fac-	0.r	.	0.r	.
4c\	.	4cc\	.	4cc\	.	4c\	-tum	.	.	.	.
4r	.	8an/L	.	8cc\L	.	4r	.	.	.	.	.
.	.	8g/J	.	8b\J	.	.	.	.	.	.	.
=53	=53	=53	=53	=53	=53	=53	=53	=53	=53	=53	=53
8BB/L	.	8f#/L	.	8an/L	.	8An\	con	.	.	.	.
8BB/	.	8f#/	.	8a/	.	8F#\	sub-	.	.	.	.
!	!	!	!	!	!	!LO:LB:g=original	!	!	!	!	!
8BB/	.	8f#/	.	8a/	.	8D#X\	-stan-	.	.	.	.
8BB/	.	8f#/	.	8a/	.	8BB/	-ti-	.	.	.	.
8BB/	.	8f#/	.	8a/	.	8A\	-a-	.	.	.	.
8BB/J	.	8f#/J	.	8a/J	.	8A\	-lem	.	.	.	.
=54	=54	=54	=54	=54	=54	=54	=54	=54	=54	=54	=54
4BB/	.	8f#/L	.	8a/L	.	4A\	pa-	.	.	.	.
.	.	8f#/J	.	8a/J	.	.	.	.	.	.	.
4E\	.	4e/	.	4g/	.	4G\	-tri	.	.	.	.
8G\L	.	4r	.	4r	.	4r	.	.	.	.	.
8D\J	.	.	.	.	.	.	.	.	.	.	.
!LO:LB:g=original	!	!LO:LB:g=original	!	!	!	!	!	!	!	!	!
=55	=55	=55	=55	=55	=55	=55	=55	=55	=55	=55	=55
4GG/	.	2B/	.	2g/	.	2G\	per	.	.	.	.
4GG/	.	.	.	.	.	.	.	.	.	.	.
4GG/	.	4B/	.	4d/	.	4D#X\	quem	.	.	.	.
=56	=56	=56	=56	=56	=56	=56	=56	=56	=56	=56	=56
!	!	!	!	!	!	!	!	!LO:N:vis=00	!	!LO:N:vis=00	!
4GG/	.	4c/	.	4e/	.	4E\	o-	0.r	.	0.r	.
4GG/	.	4B/	.	4f#/	.	4F#\	-mni-	.	.	.	.
4GG/	.	4c/	.	4g/	.	4G\	-a	.	.	.	.
=57	=57	=57	=57	=57	=57	=57	=57	=57	=57	=57	=57
4GG/	.	2B/	.	2g/	.	4G\	o-	.	.	.	.
4GG/	.	.	.	.	.	4G\	-mni-	.	.	.	.
4GG/	.	4B/	.	4d/	.	4D\	-a	.	.	.	.
!	!	!	!	!LO:LB:g=original	!	!	!	!	!	!	!
=58	=58	=58	=58	=58	=58	=58	=58	=58	=58	=58	=58
4GG/	.	4c/	.	4e/	.	4E\	fa-	.	.	.	.
4GG/	.	4B/	.	4f#/	.	4F#\	-cta	.	.	.	.
4GG/	.	4c/	.	4g/	.	4G\	sunt	.	.	.	.
=59	=59	=59	=59	=59	=59	=59	=59	=59	=59	=59	=59
4D\	.	4f#/	.	4cc\	.	4c\	per	.	.	.	.
4F#\	.	4a/	.	2cc\	.	2c\	quem	.	.	.	.
4D\	.	4f#/	.	.	.	.	.	.	.	.	.
=60	=60	=60	=60	=60	=60	=60	=60	=60	=60	=60	=60
!	!	!	!	!	!	!	!	!LO:N:vis=00	!	!LO:N:vis=00	!
4GG/	.	4d/	.	4b/	.	4B\	o-	0.r	.	0.r	.
4AA/	.	4c/	.	4a/	.	4A\	-mni-	.	.	.	.
4BB/	.	4B/	.	4g/	.	4G\	-a	.	.	.	.
!	!	!	!	!	!	!LO:LB:g=original	!	!	!	!	!
=61	=61	=61	=61	=61	=61	=61	=61	=61	=61	=61	=61
4C/	.	4e/	.	4a/	.	4A\	fac-	.	.	.	.
.	.	8qqB/	.	8qqg/	.	8qqG/	.	.	.	.	.
4D/	.	2A/	.	2f#/	.	4.F#\	.	.	.	.	.
4DD/	.	.	.	.	.	.	.	.	.	.	.
.	.	.	.	.	.	8F#\	-ta	.	.	.	.
=62	=62	=62	=62	=62	=62	=62	=62	=62	=62	=62	=62
!	!	!LO:TX:a:t=P:problem:mixed beam	!	!LO:TX:a:t=P:problem:mixed beam	!	!	!	!	!	!	!
4GG/	.	8B/L	.	8g/L	f	4G\	sunt	.	.	.	.
!	!	!	!LO:DY:a	!	!	!	!	!	!	!	!
.	.	8b\J	f	16gg\L	.	.	.	.	.	.	.
.	.	.	.	16dd\JJ	.	.	.	.	.	.	.
.	.	8qqa/	.	8qqcc/	.	.	.	.	.	.	.
4GG/	.	4.g/	.	4.b\	.	4r	.	.	.	.	.
4GG/	.	.	.	.	.	4r	.	.	.	.	.
.	.	8a/	.	8cc\	.	.	.	.	.	.	.
=63	=63	=63	=63	=63	=63	=63	=63	=63	=63	=63	=63
!	!	!	!	!	!	!LO:N:vis=00	!	!	!	!	!
4GG/	.	16b/LL	.	(16dd\LL	.	0.r	.	.	.	.	.
.	.	16a/	.	16cc\)	.	.	.	.	.	.	.
.	.	16b/	.	(16dd\	.	.	.	.	.	.	.
.	.	16a/JJ	.	16cc\JJ)	.	.	.	.	.	.	.
.	.	8qqa/	.	8qqcc/	.	.	.	.	.	.	.
4GG/	.	2g/	.	2b\	.	.	.	.	.	.	.
4GG/	.	.	.	.	.	.	.	.	.	.	.
=64	=64	=64	=64	=64	=64	=64	=64	=64	=64	=64	=64
!	!	!	!	!	!	!	!	!LO:N:vis=00	!	!LO:N:vis=00	!
4GG/	.	8b/L	.	8gg\L	.	.	.	0.r	.	0.r	.
!	!	!	!	!	!LO:DY:a	!	!	!	!	!	!
.	.	16b/L	.	16dd\L	p	.	.	.	.	.	.
.	.	16a/JJ	.	16cc\JJ	.	.	.	.	.	.	.
.	.	8qqa/	.	8qqcc/	.	.	.	.	.	.	.
4GG/	.	4.g/	.	4.b\	.	.	.	.	.	.	.
4GG/	.	.	.	.	.	.	.	.	.	.	.
.	.	8a/	.	8cc\	.	.	.	.	.	.	.
=65	=65	=65	=65	=65	=65	=65	=65	=65	=65	=65	=65
4GG/	.	(16b/LL	.	(16dd\LL	.	.	.	.	.	.	.
.	.	16a/)	.	16cc\)	.	.	.	.	.	.	.
.	.	(16b/	.	(16dd\	.	.	.	.	.	.	.
.	.	16a/JJ)	.	16cc\JJ)	.	.	.	.	.	.	.
.	.	8qqa/	.	8qqcc/	.	.	.	.	.	.	.
4GG/	.	2g/	.	2b\	.	.	.	.	.	.	.
4GG/	.	.	.	.	.	.	.	.	.	.	.
=66	=66	=66	=66	=66	=66	=66	=66	=66	=66	=66	=66
!	!	!	!	!LO:TX:a:t=P:problem:mixed beam	!LO:DY:a	!	!	!	!	!	!
4D\	.	16a/LL	.	16cc\LL	f	.	.	.	.	.	.
.	.	16A/	.	16d/	.	.	.	.	.	.	.
.	.	16d/	.	16f#/	.	.	.	.	.	.	.
.	.	16f#/JJ	.	16a/JJ	.	.	.	.	.	.	.
8r	.	8a/L	.	8cc\L	.	.	.	.	.	.	.
8D\L	.	8a/J	.	8cc\J	.	.	.	.	.	.	.
8F#\	.	4a/	.	4cc\	.	.	.	.	.	.	.
8D\J	.	.	.	.	.	.	.	.	.	.	.
!	!	!LO:LB:g=original	!	!	!	!	!	!	!	!	!
=67	=67	=67	=67	=67	=67	=67	=67	=67	=67	=67	=67
4G\	.	8g/L	.	8b\L	.	2.r	.	.	.	.	.
.	.	8b/J	.	8gg\J	.	.	.	.	.	.	.
4d\	.	4d/	.	4d/	.	.	.	.	.	.	.
4D\	.	4a/	.	4ff#\	.	.	.	.	.	.	.
!LO:LB:g=original	!	!	!	!	!	!	!	!	!	!	!
=68	=68	=68	=68	=68	=68	=68	=68	=68	=68	=68	=68
!	!	!	!	!LO:TX:a:t=P:problem:mixed beam	!	!	!	!	!	!	!
4G\	.	8b/L	.	8gg\L	.	4G\	Qui	4G/	Qui	4b\	Qui
.	.	16d/L	.	16g/L	.	.	.	.	.	.	.
.	.	16d/JJ	.	16g/JJ	.	.	.	.	.	.	.
!LO:TX:a:t=Tutti	!	!	!	!	!	!	!	!	!	!	!
8G\L	.	16g/LL	.	16b\LL	.	4G\	pro-	8ryy	.	4b\	p(ro)-
.	.	16g/	.	16b\	.	.	.	.	.	.	.
8G\	.	16b/	.	16dd\	.	.	.	8G/	pro-	.	.
.	.	16b/JJ	.	16dd\JJ	.	.	.	.	.	.	.
8G\	.	16dd\LL	.	16gg\LL	.	8G\	-pter	8G/	-p(ter)-	8b\	-pter
.	.	16dd\	.	16gg\	.	.	.	.	.	.	.
8G\J	.	16gg\	.	16bb\	.	8G\	nos	8B\	-nos	8dd\	nos
.	.	16gg\JJ	.	16bb\JJ	.	.	.	.	.	.	.
!	!	!	!	!LO:LB:g=original	!	!	!	!	!	!	!
=69	=69	=69	=69	=69	=69	=69	=69	=69	=69	=69	=69
.	.	8qqb/	.	8qqdd/	.	.	.	8qqB/	.	8qqdd/	.
4d\	.	4a/	.	4cc\	.	8d\	ho-	8A\	ho-	8cc\	ho-
.	.	.	.	.	.	8d\	-mi-	8A\	-mi-	8cc\	-mi-
4G\	.	8g/L	.	8b\L	.	4G\	-nes	4G\	-nes	4b\	-nes
.	.	16b/L	.	16dd\L	.	.	.	.	.	.	.
.	.	16b/JJ	.	16dd\JJ	.	.	.	.	.	.	.
8r	.	16dd\LL	.	16gg\LL	.	4G\	nos	4B\	nos	4dd\	nos
.	.	16dd\	.	16gg\	.	.	.	.	.	.	.
8G\	.	16gg\	.	16bb\	.	.	.	.	.	.	.
.	.	16gg\JJ	.	16bb\JJ	.	.	.	.	.	.	.
=70	=70	=70	=70	=70	=70	=70	=70	=70	=70	=70	=70
.	.	8qqb/	.	8qqdd/	.	.	.	8qqB/	.	.	.
4d\	.	4a/	.	4cc\	.	8d\	ho-	8A\	ho-	8cc\	ho-
.	.	.	.	.	.	8d\	-mi-	8A\	-mi-	8cc\	-mi-
4G\	.	4g/	.	4b\	.	4G\	-nes	4G\	-nes	4b\	-nes
4GG/	.	4r	.	4r	.	4r	.	4r	.	4r	.
=71	=71	=71	=71	=71	=71	=71	=71	=71	=71	=71	=71
8c\L	.	8ee\L	.	16ee\LL	.	4c\	et	4c\	et	4ee\	et
.	.	.	.	16ee\	.	.	.	.	.	.	.
8c\	.	8ee\	.	16ccc\	.	.	.	.	.	.	.
.	.	.	.	16ccc\JJ	.	.	.	.	.	.	.
8c\	.	8ee\	.	16gg#X\LL	.	4c\	pro-	(8G#X/L	pro-	4ee\	pro-
.	.	.	.	16gg#\	.	.	.	.	.	.	.
8c\	.	8ee\	.	16aa\	.	.	.	8A/J)	.	.	.
.	.	.	.	16aa\JJ	.	.	.	.	.	.	.
8c\	.	8ee\	.	4aa\	.	4c\	-pter	4A/	-pter	4ee\	-pter
8c\J	.	8ee\J	.	.	.	.	.	.	.	.	.
!	!	!	!	!	!	!LO:LB:g=original	!	!	!	!	!
=72	=72	=72	=72	=72	=72	=72	=72	=72	=72	=72	=72
8B\L	.	8dd\L	.	16dd\LL	.	4B\	nos-	4B\	no-	4dd\	nos-
.	.	.	.	16dd\	.	.	.	.	.	.	.
8B\	.	8dd\	.	16bb\	.	.	.	.	.	.	.
.	.	.	.	16bb\JJ	.	.	.	.	.	.	.
8B\	.	8dd\	.	16ff#\LL	.	4B\	-tram	(8F#/L	-stram	4dd\	-tram
.	.	.	.	16ff#\	.	.	.	.	.	.	.
8B\	.	8dd\	.	16ggn\	.	.	.	8Gn/J)	.	.	.
.	.	.	.	16gg\JJ	.	.	.	.	.	.	.
8B\	.	8dd\	.	4gg\	.	4B\	Sa-	4G/	sa-	4dd\	sa-
8B\J	.	8dd\J	.	.	.	.	.	.	.	.	.
=73	=73	=73	=73	=73	=73	=73	=73	=73	=73	=73	=73
4A\	.	16a\LL	.	16cc\LL	.	4A\	-lu-	4F#/	-lu-	4cc\	-lu-
.	.	16a\	.	16cc\	.	.	.	.	.	.	.
.	.	16cc\	.	16aa\	.	.	.	.	.	.	.
.	.	16cc\JJ	.	16aa\JJ	.	.	.	.	.	.	.
4D\	.	16f#/LL	.	16a/LL	.	4D\	-tem	4A/	-tem	4cc\	-tem
.	.	16f#/	.	16a/	.	.	.	.	.	.	.
.	.	16a/	.	16cc/	.	.	.	.	.	.	.
.	.	16a/JJ	.	16cc/JJ	.	.	.	.	.	.	.
4G\	.	16g/LL	.	16b\LL	.	4G\	de-	4G/	des-	4b\	de-
.	.	16g/	.	16b\	.	.	.	.	.	.	.
.	.	16b/	.	16gg\	.	.	.	.	.	.	.
.	.	16b/JJ	.	16gg\JJ	.	.	.	.	.	.	.
!	!	!	!	!	!	!	!	!LO:LB:g=original	!	!	!
=74	=74	=74	=74	=74	=74	=74	=74	=74	=74	=74	=74
4A\	.	16a\LL	.	16cc\LL	.	4A\	-cen-	4F#/	-cen-	4cc\	-scen-
.	.	16a\	.	16cc\	.	.	.	.	.	.	.
.	.	16cc\	.	16aa\	.	.	.	.	.	.	.
.	.	16cc\JJ	.	16aa\JJ	.	.	.	.	.	.	.
4D\	.	16f#/LL	.	16a\LL	.	4D\	-dit	4A/	-dit	4cc\	-dit
.	.	16f#/	.	16a\	.	.	.	.	.	.	.
.	.	16a/	.	16cc\	.	.	.	.	.	.	.
.	.	16a/JJ	.	16cc\JJ	.	.	.	.	.	.	.
4G\	.	16g/LL	.	16b\LL	.	4G\	de	4G/	de	4b\	de
.	.	16g/	.	16b\	.	.	.	.	.	.	.
.	.	16b/	.	16gg\	.	.	.	.	.	.	.
.	.	16b/JJ	.	16gg\JJ	.	.	.	.	.	.	.
!	!	!LO:LB:g=original	!	!LO:LB:g=original	!	!	!	!	!	!LO:LB:g=original	!
=75	=75	=75	=75	=75	=75	=75	=75	=75	=75	=75	=75
4G\	.	8g/L	.	8b\L	.	4G\	ce-	(>4G/	ce-	4b\	ce-
.	.	8b/J	.	8ff#\J	.	.	.	.	.	.	.
4d\	.	4f#/	.	4d/	.	4d\	.	2F#/)	.	2a\	.
4D\	.	4a/	.	4ff#\	.	4D\	.	.	.	.	.
=76	=76	=76	=76	=76	=76	=76	=76	=76	=76	=76	=76
4G\	.	4b/	.	4ff#\	.	8G\	-lis	8G/	-liſ	8b\	-lis
.	.	.	.	.	.	8G\	de	8G/	De	8b\	de-
4d\	.	4f#/	.	4a/	.	4d\	ce-	2F#/	ce-	2a\	-ce-
4D\	.	4a/	.	4ff#\	.	4D\	.	.	.	.	.
=77	=77	=77	=77	=77	=77	=77	=77	=77	=77	=77	=77
4G\	.	4b\	.	4gg\	.	4G\	-liſ	4G/	-liſ	4b\	-lis
4r	.	4r	.	4r	.	4r	.	4r	.	4r	.
4r	.	4r	.	4r	.	4r	.	4r	.	4r	.
!LO:LB:g=original	!	!LO:LB:g=original	!	!LO:PB:g=original	!	!	!	!LO:LB:g=original	!	!LO:LB:g=original	!
=78||	=78||	=78||	=78||	=78||	=78||	=78||;	=78||	=78||	=78||	=78||	=78||
*k[]	*	*k[]	*	*k[]	*	*k[]	*	*k[]	*	*k[]	*
*M12/8	*	*M12/8	*	*M12/8	*	*M12/8	*	*M12/8	*	*M12/8	*
!LO:TX:b:t=Et incarnatus	!	!LO:TX:b:t=Et in carnatus	!	!LO:TX:b:t=Et incarnatus	!	!	!	!	!	!	!
!LO:TX:a:t=andante Solo	!	!LO:TX:a:t=andante Solo	!	!LO:TX:a:t=Andante Solo	!	!LO:TX:a:t=Tacet	!	!LO:TX:a:t=Et incarnatus Tacet	!	!LO:TX:a:t=P:problem:w tym głosie w części na 12\8 przy kluczu czasami pojawia się błędnie krzyżyk fis zamiast kasownika	!
!	!	!	!	!	!	!	!	!	!	!LO:N:vis=00	!
4.C/	.	4cc\	.	(8cc\L	.	1.ryy	.	1.ryy	.	00.r	.
.	.	.	.	8ee\)	.	.	.	.	.	.	.
.	.	8b\	.	8dd`\J	.	.	.	.	.	.	.
4.C/	.	8a/L	.	(8cc\L	.	.	.	.	.	.	.
.	.	8g/	.	8b\)	.	.	.	.	.	.	.
.	.	8f/J	.	8a`\J	.	.	.	.	.	.	.
.	.	8qqf/	.	.	.	.	.	.	.	.	.
4.C/	.	8e/L	.	(8g/L	.	.	.	.	.	.	.
.	.	8c/	.	8e/)	.	.	.	.	.	.	.
.	.	8d/J	.	8f`/J	.	.	.	.	.	.	.
.	.	8qqd/	.	8qqf/	.	.	.	.	.	.	.
4.C/	.	4.e/	.	4.g/	.	.	.	.	.	.	.
=79	=79	=79	=79	=79	=79	=79	=79	=79	=79	=79	=79
!	!	!LO:TX:a:t=P:problem:mixed beam	!	!LO:TX:a:t=P:problem:mixed beam	!	!	!	!	!	!	!
4.GG/	.	8G/L	.	8G`>/L	.	1.ryy	.	1.ryy	.	.	.
.	.	(>8b\	.	(>8dd\	.	.	.	.	.	.	.
.	.	8cc\J)	.	8ee\J)	.	.	.	.	.	.	.
!	!	!LO:TX:a:t=P:problem:mixed beam	!	!LO:TX:a:t=P:problem:mixed beam	!	!	!	!	!	!	!
4.GG/	.	8G/L	.	8G`>/L	.	.	.	.	.	.	.
.	.	(>8dd\	.	(>8ff\	.	.	.	.	.	.	.
.	.	8cc\J)	.	8dd\J)	.	.	.	.	.	.	.
!	!	!	!	!LO:TX:a:t=P:problem:mixed beam	!	!	!	!	!	!	!
4G\	.	8G/L	.	8G`>/L	.	.	.	.	.	.	.
.	.	(8f/	.	(>8dd\	.	.	.	.	.	.	.
8GG/	.	8e/J)	.	8b\J)	.	.	.	.	.	.	.
.	.	8qqd/	.	8qqb/	.	.	.	.	.	.	.
!LO:TX:a:t=P:problem:przed tą nutą zbędna kreska taktowa	!	!	!	!	!	!	!	!	!	!	!
8C/L	.	4.e/	.	4.cc\	.	.	.	.	.	.	.
8GG/	.	.	.	.	.	.	.	.	.	.	.
8C/J	.	.	.	.	.	.	.	.	.	.	.
=80	=80	=80	=80	=80	=80	=80	=80	=80	=80	=80	=80
4.C/	.	4ee\	.	(8gg\L	.	1.ryy	.	1.ryy	.	.	.
.	.	.	.	8ccc\)	.	.	.	.	.	.	.
.	.	8ee\	.	8gg`\J	.	.	.	.	.	.	.
4.C/	.	8ee\L	.	(8gg\L	.	.	.	.	.	.	.
.	.	(8cc\	.	8ee\)	.	.	.	.	.	.	.
.	.	8dd\J)	.	8ff`\J	.	.	.	.	.	.	.
4.C/	.	4ee\	.	(8gg\L	.	.	.	.	.	.	.
.	.	.	.	8ccc\)	.	.	.	.	.	.	.
.	.	8ee\	.	8gg`\J	.	.	.	.	.	.	.
4.C/	.	4.ee\	.	4.gg\	.	.	.	.	.	.	.
=81	=81	=81	=81	=81	=81	=81	=81	=81	=81	=81	=81
4.GG/	.	(8dd\L	.	(8ff\L	.	1.ryy	.	1.ryy	.	.	.
.	.	8ff\)	.	8ddd\)	.	.	.	.	.	.	.
.	.	8dd`\J	.	8ff`\J	.	.	.	.	.	.	.
4.GG/	.	(8dd\L	.	(8ff\L	.	.	.	.	.	.	.
.	.	8b\)	.	8dd\)	.	.	.	.	.	.	.
.	.	8cc`\J	.	8ee`\J	.	.	.	.	.	.	.
4.GG/	.	(8dd\L	.	(8ff\L	.	.	.	.	.	.	.
.	.	8ff\)	.	8ddd\)	.	.	.	.	.	.	.
.	.	8dd`\J	.	8ff`\J	.	.	.	.	.	.	.
4.GG/	.	4.dd\	.	4.ff\	.	.	.	.	.	.	.
=82	=82	=82	=82	=82	=82	=82	=82	=82	=82	=82	=82
!	!	!	!	!	!	!	!	!	!	!LO:N:vis=0	!
4C/	.	(8g/L	.	(8ee\L	.	1.ryy	.	1.ryy	.	0.r	.
.	.	8e/)	.	8cc\)	.	.	.	.	.	.	.
8C/	.	8g`/J	.	8ee`\J	.	.	.	.	.	.	.
4G\	.	(8f/L	.	(8dd\L	.	.	.	.	.	.	.
.	.	8d/)	.	8b\)	.	.	.	.	.	.	.
8GG/	.	8f`/J	.	8dd`\J	.	.	.	.	.	.	.
4C/	.	4e/	.	4cc\	.	.	.	.	.	.	.
8r	.	8cc\	.	8ee\	.	.	.	.	.	.	.
8c\L	.	4.dd\	.	4.gg\	.	.	.	.	.	.	.
8G\	.	.	.	.	.	.	.	.	.	.	.
8E\J	.	.	.	.	.	.	.	.	.	.	.
!	!	!	!	!LO:LB:g=original	!	!	!	!	!	!	!
=83	=83	=83	=83	=83	=83	=83	=83	=83	=83	=83	=83
4C/	.	8g/L	.	(8ee\L	.	1.ryy	.	1.ryy	.	.	.
!	!	!LO:TX:a:t=P:problem:fis przeprawione na e	!	!	!	!	!	!	!	!	!
!	!	!LO:TX:b:t=e	!	!	!	!	!	!	!	!	!
.	.	8e/	.	8cc\)	.	.	.	.	.	.	.
8C/	.	8g/J	.	8ee`\J	.	.	.	.	.	.	.
4G\	.	8f/L	.	(8dd\L	.	.	.	.	.	.	.
.	.	8d/	.	8b\)	.	.	.	.	.	.	.
8GG/	.	8f/J	.	8dd`\J	.	.	.	.	.	.	.
8C\L	.	8e/L	.	8cc\L	.	.	.	.	.	.	.
8G\	.	8g/	.	8g\	.	.	.	.	.	.	.
8E\J	.	8e/J	.	8e\J	.	.	.	.	.	.	.
4.C;;/	.	4.c;;/	.	4.c;;/	.	.	.	.	.	.	.
!	!	!LO:LB:g=original	!	!	!	!	!	!	!	!	!
=84	=84	=84	=84	=84	=84	=84	=84	=84	=84	=84	=84
!	!LO:DY:a	!	!	!	!	!	!	!	!	!	!
4.C/	p	4cc\	.	(8cc\L	.	1.ryy	.	1.ryy	.	(8cc\L	et
.	.	.	.	8ee\)	.	.	.	.	.	8ee\	.
.	.	8b\	.	8dd`\J	.	.	.	.	.	8dd\J)	.
4.C/	.	8a/L	.	(8cc\L	.	.	.	.	.	(8cc\L	in-
.	.	8g/	.	8b\)	.	.	.	.	.	8b\J)	.
.	.	8f/J	.	8a`\J	.	.	.	.	.	8a\	-car-
.	.	8qqf/	.	.	.	.	.	.	.	.	.
4.C/	.	8e/L	.	(8g/L	.	.	.	.	.	(8g\L	-na-
.	.	8c/	.	8e/)	.	.	.	.	.	8e\J)	.
.	.	8d/J	.	8f`/J	.	.	.	.	.	8f/	-tus
.	.	8qqd/	.	8qqf/	.	.	.	.	.	8qqf/	.
4.C/	.	4.e/	.	4.g/	.	.	.	.	.	4.g\	est
=85	=85	=85	=85	=85	=85	=85	=85	=85	=85	=85	=85
!	!	!LO:TX:a:t=P:problem:mixed beam	!	!LO:TX:a:t=P:problem:mixed beam	!	!	!	!	!	!	!
4.GG/	.	8G/L	.	8G`>/L	.	1.ryy	.	1.ryy	.	4dd\	de
.	.	(>8b\	.	(>8dd\	.	.	.	.	.	.	.
.	.	8cc\J)	.	8ee\J)	.	.	.	.	.	8ff\	.
!	!	!LO:TX:a:t=P:problem:mixed beam	!	!LO:TX:a:t=P:problem:mixed beam	!	!	!	!	!	!	!
4.GG/	.	8G/L	.	8G`>/L	.	.	.	.	.	8ff\	spi-
.	.	(>8dd\	.	(>8ff\	.	.	.	.	.	8ff\	-ri-
.	.	8cc\J)	.	8ee\J)	.	.	.	.	.	8ee\	-tu
!LO:LB:g=original	!	!	!	!LO:TX:a:t=P:problem:mixed beam	!	!	!	!	!	!	!
4G\	.	8G/L	.	8G`>/L	.	.	.	.	.	4dd\	san-
.	.	(8f/	.	(>8dd\	.	.	.	.	.	.	.
8GG/	.	8d/J)	.	8b\J)	.	.	.	.	.	8b\	.
.	.	8qqd/	.	8qqb/	.	.	.	.	.	8qqb/	.
8C/L	.	4.e/	.	4.cc\	.	.	.	.	.	4.cc\	-cto
8GG/	.	.	.	.	.	.	.	.	.	.	.
8C/J	.	.	.	.	.	.	.	.	.	.	.
=86	=86	=86	=86	=86	=86	=86	=86	=86	=86	=86	=86
4.C/	.	4ee\	.	8gg\L	.	1.ryy	.	1.ryy	.	4gg\	ex
.	.	.	.	8ccc\	.	.	.	.	.	.	.
.	.	8ee\	.	8gg\J	.	.	.	.	.	8gg\	ma-
4.C/	.	8ee\L	.	(8gg\L	.	.	.	.	.	8gg\L	-ri-
.	.	8cc\	.	8ee\)	.	.	.	.	.	8ee\J	.
.	.	8dd\J	.	8ff`\J	.	.	.	.	.	8ff\	-a
4.C/	.	4ee\	.	8gg\L	.	.	.	.	.	4gg\	vi-
.	.	.	.	8ccc\	.	.	.	.	.	.	.
.	.	8ee\	.	8gg\J	.	.	.	.	.	8gg\	-ri-
4.C/	.	4.ee\	.	4.gg\	.	.	.	.	.	4.gg\	-ne
!	!	!	!	!	!	!	!	!	!	!LO:LB:g=original	!
=87	=87	=87	=87	=87	=87	=87	=87	=87	=87	=87	=87
4.GG/	.	(8dd\L	.	(8ff\L	.	1.ryy	.	1.ryy	.	4ff\	ex
.	.	8ff\)	.	8ddd\)	.	.	.	.	.	.	.
.	.	8dd`\J	.	8ff`\J	.	.	.	.	.	8ff\	ma-
4.GG/	.	(8dd\L	.	(8ff\L	.	.	.	.	.	8ff\L	-ri-
.	.	8b\)	.	8dd\)	.	.	.	.	.	8dd\J	.
.	.	8cc`\J	.	8ee`\J	.	.	.	.	.	8ee\	-a
4.GG/	.	(8dd\L	.	(8ff\L	.	.	.	.	.	4ff\	vir-
.	.	8ff\)	.	8ddd\)	.	.	.	.	.	.	.
.	.	8dd`\J	.	8ff`\J	.	.	.	.	.	8ff\	-gi-
4.GG/	.	4.dd\	.	4.ff\	.	.	.	.	.	4.ff\	-ne
!	!	!	!	!LO:LB:g=original	!	!	!	!	!	!	!
=88	=88	=88	=88	=88	=88	=88	=88	=88	=88	=88	=88
4C/	.	4e/	.	(8ee\L	.	1.ryy	.	1.ryy	.	(8ee\L	et
.	.	.	.	8dd\)	.	.	.	.	.	8dd\	.
8C/	.	8e/	.	8cc`\J	.	.	.	.	.	8cc\J)	.
4C/	.	4e/	.	(8cc\L	.	.	.	.	.	(8cc\L	ho-
.	.	.	.	8b\)	.	.	.	.	.	8b\J)	.
8C/	.	8e/	.	8a`\J	.	.	.	.	.	8a\	-mo
.	.	.	.	8qqg/	.	.	.	.	.	8qqg/	.
4D/	.	4a/	.	4f#X/	.	.	.	.	.	4f#X/	fac-
!	!LO:DY:b:t=f	!	!	!	!	!	!	!	!	!	!
8AA/	f	8g/	.	8e/	.	.	.	.	.	8e/	-tus
.	.	.	.	8qqe/	.	.	.	.	.	8qqe/	.
4.D/	.	4.f#X/	.	4.d/	.	.	.	.	.	4.d/	eſt
=89	=89	=89	=89	=89	=89	=89	=89	=89	=89	=89	=89
4.D/	.	8a/L	.	(8cc\L	.	1.ryy	.	1.ryy	.	(8cc\L	et
.	.	8f#X/	.	8a\)	.	.	.	.	.	8a\	.
.	.	8a`/J	.	8cc`\J	.	.	.	.	.	8cc\J)	.
4.GG/	.	(8g/L	.	(8b\L	.	.	.	.	.	8b\L	ho-
.	.	8a/)	.	8cc\)	.	.	.	.	.	8cc\J	.
.	.	8b`/J	.	8dd\J	.	.	.	.	.	8dd\	-mo
.	.	8qqb/	.	.	.	.	.	.	.	.	.
4.D/	.	8a/L	.	8cc\L	.	.	.	.	.	(8cc\L	fac-
.	.	8f#X/	.	8a\	.	.	.	.	.	8a\J)	.
.	.	8a/J	.	8cc\J	.	.	.	.	.	8cc\	-tus
!LO:TX:a:t=P:problem:mixed beam	!	!	!	!	!	!	!	!	!	!	!
.	.	8qqa/	.	8qqcc/	.	.	.	.	.	8qqcc/	.
8G\L	.	4.g/	.	4.b\	.	.	.	.	.	4.b\	est
8D\	.	.	.	.	.	.	.	.	.	.	.
8GG/J	.	.	.	.	.	.	.	.	.	.	.
!	!	!LO:LB:g=original	!	!	!	!	!	!	!	!	!
=90	=90	=90	=90	=90	=90	=90	=90	=90	=90	=90	=90
4.D/	.	(8a/L	.	(8cc\L	.	1.ryy	.	1.ryy	.	8cc\L	et
.	.	8f#X/)	.	8a\)	.	.	.	.	.	8a\	.
.	.	8a`/J	.	8cc`\J	.	.	.	.	.	8cc\J	.
4.GG/	.	(8g/L	.	(8b\L	.	.	.	.	.	8b\L	ho-
.	.	8a/)	.	8cc\)	.	.	.	.	.	8cc\J	.
!	!	!	!	!	!	!	!	!	!	!LO:LB:g=original	!
.	.	8b`/J	.	8dd`\J	.	.	.	.	.	8dd\	-mo
.	.	8qqb/	.	.	.	.	.	.	.	.	.
4.D/	.	8a/L	.	(8cc\L	.	.	.	.	.	(8cc\L	fac-
.	.	8f#X/	.	8a\)	.	.	.	.	.	8a\J)	.
.	.	8a/J	.	8cc`\J	.	.	.	.	.	8cc\	-tus
!LO:TX:a:t=P:problem:mixed beam	!	!	!	!	!	!	!	!	!	!	!
.	.	8qqa/	.	8qqcc/	.	.	.	.	.	8qqcc/	.
8G\L	.	4.g/	.	4.b\	.	.	.	.	.	4.b\	est
8D\	.	.	.	.	.	.	.	.	.	.	.
8GG/J	.	.	.	.	.	.	.	.	.	.	.
=91	=91	=91	=91	=91	=91	=91	=91	=91	=91	=91	=91
4.C/	.	(8cc\L	.	(8ee\L	.	1.ryy	.	1.ryy	.	(8ee\L	ho-
.	.	8b\)	.	8dd\)	.	.	.	.	.	8dd\J)	.
.	.	8a`\J	.	8cc`\J	.	.	.	.	.	8cc\	-mo
4.D/	.	8d/L	.	(8b\L	.	.	.	.	.	(8b\L	fac-
.	.	8e/	.	8cc\)	.	.	.	.	.	8cc\J)	.
.	.	8c/J	.	8a`\J	.	.	.	.	.	8a\	-tus
.	.	.	.	.	.	.	.	.	.	8qqa/	.
8G\L	.	8A/L	.	8g/L	.	.	.	.	.	4g\	est
8D\	.	8d/	.	8d/	.	.	.	.	.	.	.
8BB\J	.	8B/J	.	8B/J	.	.	.	.	.	8r	.
!	!	!	!	!	!	!	!	!	!	!LO:N:vis=4	!
4.GG/	.	4.G/	.	4.G/	.	.	.	.	.	4.r	.
=92	=92	=92	=92	=92	=92	=92	=92	=92	=92	=92	=92
!	!LO:DY:a	!	!LO:DY:a	!	!LO:DY:a	!	!	!	!	!LO:N:vis=00	!
4.G\	f	4b\	f	8dd\L	f	1.ryy	.	1.ryy	.	00.r	.
.	.	.	.	8gg\	.	.	.	.	.	.	.
.	.	8b\	.	8dd\J	.	.	.	.	.	.	.
4.G\	.	8b\L	.	(8dd\L	.	.	.	.	.	.	.
.	.	8g\	.	8b\)	.	.	.	.	.	.	.
.	.	8a\J	.	8cc`\J	.	.	.	.	.	.	.
4.G\	.	4b\	.	(8dd\L	.	.	.	.	.	.	.
.	.	.	.	8gg\)	.	.	.	.	.	.	.
.	.	8b\	.	8dd`\J	.	.	.	.	.	.	.
4.G\	.	4.b\	.	4.dd\	.	.	.	.	.	.	.
!LO:PB:g=original	!	!	!	!	!	!	!	!	!	!	!
=93	=93	=93	=93	=93	=93	=93	=93	=93	=93	=93	=93
4.D\	.	(8a\L	.	(8cc\L	.	1.ryy	.	1.ryy	.	.	.
.	.	8cc\)	.	8aa\)	.	.	.	.	.	.	.
.	.	8a`\J	.	8cc`\J	.	.	.	.	.	.	.
4.D\	.	(8a/L	.	(8cc\L	.	.	.	.	.	.	.
.	.	8f#X/)	.	8a\)	.	.	.	.	.	.	.
.	.	8g`/J	.	8b`\J	.	.	.	.	.	.	.
!	!	!	!	!LO:LB:g=original	!	!	!	!	!	!	!
4.D\	.	(8a/L	.	8cc\L	.	.	.	.	.	.	.
.	.	8cc/)	.	8aa\	.	.	.	.	.	.	.
.	.	8b`/J	.	8cc\J	.	.	.	.	.	.	.
4.D\	.	4.a/	.	4.cc\	.	.	.	.	.	.	.
=94	=94	=94	=94	=94	=94	=94	=94	=94	=94	=94	=94
4GG/	.	(8d/L	.	(8b/L	.	1.ryy	.	1.ryy	.	.	.
.	.	8B/)	.	8g/)	.	.	.	.	.	.	.
8G\	.	8d`/J	.	8b`/J	.	.	.	.	.	.	.
4D\	.	(8c/L	.	(8a/L	.	.	.	.	.	.	.
.	.	8A/)	.	8f#X/)	.	.	.	.	.	.	.
8D\	.	8c`/J	.	8a`/J	.	.	.	.	.	.	.
4GG/	.	4B/	.	4g/	.	.	.	.	.	.	.
8r	.	8g/	.	8b/	.	.	.	.	.	.	.
!	!	!LO:TX:a:t=P:problem:zamazana nuta	!	!	!	!	!	!	!	!	!
8G\L	.	4.b/	.	4.dd\	.	.	.	.	.	.	.
8D\	.	.	.	.	.	.	.	.	.	.	.
8BB\J	.	.	.	.	.	.	.	.	.	.	.
=95	=95	=95	=95	=95	=95	=95	=95	=95	=95	=95	=95
4GG/	.	8d/L	.	8b/L	.	1.ryy	.	1.ryy	.	.	.
.	.	8B/	.	8g/	.	.	.	.	.	.	.
8G\	.	8d/J	.	8b/J	.	.	.	.	.	.	.
4D\	.	8c/L	.	8a/L	.	.	.	.	.	.	.
.	.	8A/	.	8f#X/	.	.	.	.	.	.	.
8D\	.	8c/J	.	8a/J	.	.	.	.	.	.	.
!	!	!LO:LB:g=original	!	!	!	!	!	!	!	!	!
8G\L	.	8B/L	.	8g/L	.	.	.	.	.	.	.
8D\	.	8d/	.	8d/	.	.	.	.	.	.	.
8BB\J	.	8B/J	.	8B/J	.	.	.	.	.	.	.
4.GG/	.	4.G/	.	4.G/	.	.	.	.	.	.	.
=96	=96	=96	=96	=96	=96	=96	=96	=96	=96	=96	=96
!	!LO:DY:a	!	!	!	!	!	!	!	!	!	!
8GG/L	p	8b\L	.	8dd\L	.	1.ryy	.	1.ryy	.	4.dd\	Cru-
8GG/	.	8b\	.	8dd\	.	.	.	.	.	.	.
8GG/J	.	8b\J	.	8dd\J	.	.	.	.	.	.	.
8GG/L	.	8b\L	.	8dd\L	.	.	.	.	.	4.gg\	-ci-
8GG/	.	8b\	.	8dd\	.	.	.	.	.	.	.
8GG/J	.	8b\J	.	8dd\J	.	.	.	.	.	.	.
.	.	.	.	.	.	.	.	.	.	8qqdd/	.
8D\L	.	8a/L	.	8cc\L	.	.	.	.	.	4.cc\	-fi-
8D\	.	8a/	.	8cc\	.	.	.	.	.	.	.
8D\J	.	8a/J	.	8cc\J	.	.	.	.	.	.	.
.	.	.	.	.	.	.	.	.	.	8qqcc/	.
8GG/L	.	8g/L	.	8b\L	.	.	.	.	.	4.b\	-xus
8GG/	.	8g/	.	8b\	.	.	.	.	.	.	.
8GG/J	.	8g/J	.	8b\J	.	.	.	.	.	.	.
=97	=97	=97	=97	=97	=97	=97	=97	=97	=97	=97	=97
8GG/L	.	8b/L	.	8dd\L	.	1.ryy	.	1.ryy	.	4dd\	e-
8GG/	.	8b/	.	8dd\	.	.	.	.	.	.	.
8GG/J	.	8b/J	.	8dd\J	.	.	.	.	.	8dd\	-ti-
8GG/L	.	8b/L	.	8gg\L	.	.	.	.	.	8gg\L	am
8GG/	.	8dd/	.	8ff#X\	.	.	.	.	.	8ff#X\J	.
8GG/J	.	8cc/J	.	8ee\J	.	.	.	.	.	8ee\	pro
.	.	8qqb/	.	8qqdd/	.	.	.	.	.	8qqdd/	.
8D\L	.	8a/L	.	8cc\L	.	.	.	.	.	4.cc\	no-
8D\	.	8a/	.	8cc\	.	.	.	.	.	.	.
8D\J	.	8a/J	.	8cc\J	.	.	.	.	.	.	.
.	.	8qqa/	.	8qqcc/	.	.	.	.	.	8qqcc/	.
4G\	.	4.g/	.	4.b\	.	.	.	.	.	4.b\	-bis
8GG/	.	.	.	.	.	.	.	.	.	.	.
!LO:LB:g=original	!	!	!	!	!	!	!	!	!	!	!
=98	=98	=98	=98	=98	=98	=98	=98	=98	=98	=98	=98
4.D\	.	8f#X/L	.	(8a\L	.	1.ryy	.	1.ryy	.	(8a\L	sub
.	.	(8g/	.	8b\)	.	.	.	.	.	8b\	.
.	.	8a/J)	.	8cc`\J	.	.	.	.	.	8cc\J)	.
4.D\	.	(8g/L	.	(8b/L	.	.	.	.	.	8b\	pon-
.	.	8e/	.	8g/)	.	.	.	.	.	8g\	-ti-
!	!	!	!	!	!	!	!	!	!	!LO:LB:g=original	!
.	.	8f#/J)	.	8a`/J	.	.	.	.	.	8a\	-o
4.D\	.	(8f#X/L	.	(8a\L	.	.	.	.	.	(8a\L	pi-
.	.	8g/)	.	8b\)	.	.	.	.	.	8b\	.
.	.	8a/J	.	8cc`\J	.	.	.	.	.	8cc\J)	.
4.D\	.	(8g/L	.	(8b/L	.	.	.	.	.	(8b\L	-la-
.	.	8e/	.	8g/)	.	.	.	.	.	8g\J)	.
.	.	8g/J)	.	8a`/J	.	.	.	.	.	8a\	-to
!	!	!	!	!LO:LB:g=original	!	!	!	!	!	!	!
=99	=99	=99	=99	=99	=99	=99	=99	=99	=99	=99	=99
4C\	.	8g/L	.	4ee\	.	1.ryy	.	1.ryy	.	4ee\	pas-
.	.	8cc/	.	.	.	.	.	.	.	.	.
!	!	!LO:TX:b:t=P:problem:krzyżyk pod nutą	!	!	!	!	!	!	!	!	!
8D\	.	8a#/J	.	8ff#X\	.	.	.	.	.	8ff#X\	-suſ
4GG/	.	8b\L	.	8gg\L	.	.	.	.	.	8gg\L	et
!	!	!LO:N:vis=32	!	!	!	!	!	!	!	!	!
.	.	(16dd\L	.	(16ff#\L	.	.	.	.	.	16ff#\L	.
!	!	!LO:N:vis=32	!	!	!	!	!	!	!	!	!
.	.	16cc\	.	16ee\)	.	.	.	.	.	16ee\JJ	.
!	!	!LO:N:vis=32	!	!	!	!	!	!	!	!LO:N:vis=8	!
8D\	.	16b\	.	(16dd\	.	.	.	.	.	16dd\L	se-
!	!	!LO:N:vis=32	!	!	!	!	!	!	!	!LO:N:vis=8	!
.	.	16a\JJ)	.	16cc\JJ)	.	.	.	.	.	16cc\J	.
8G\L	.	(8g/L	.	8b\L	.	.	.	.	.	8b\L	.
8C\	.	8a/	.	8cc\	.	.	.	.	.	8cc\J	-pul-
8D\J	.	8f#X/J)	.	8a\J	.	.	.	.	.	8a\	.
.	.	.	.	.	.	.	.	.	.	.	-tus
!LO:TX:a:t=P:problem:mixed beam	!	!	!	!	!	!	!	!	!	!	!
.	.	8qqf#/	.	8qqa/	.	.	.	.	.	8qqa/	.
8GG/L	.	4.g/	.	4.g/	.	.	.	.	.	4.g\	est
16G\L	.	.	.	.	.	.	.	.	.	.	.
16Fn\	.	.	.	.	.	.	.	.	.	.	.
16E\	.	.	.	.	.	.	.	.	.	.	.
16D\JJ	.	.	.	.	.	.	.	.	.	.	.
!	!	!LO:LB:g=original	!	!	!	!	!	!	!	!	!
=100	=100	=100	=100	=100	=100	=100	=100	=100	=100	=100	=100
4.C/	.	4cc\	.	8cc\L	.	1.ryy	.	1.ryy	.	(8cc\L	Cru-
.	.	.	.	8ee\	.	.	.	.	.	8ee\	.
.	.	8b\	.	8dd\J	.	.	.	.	.	8dd\J)	.
4.C/	.	8a/L	.	8cc\L	.	.	.	.	.	8cc\L	.
.	.	8g/	.	8b\	.	.	.	.	.	8b\J	.
.	.	8fn/J	.	8a\J	.	.	.	.	.	8a\	-ci-
4.C/	.	8e/L	.	8g/L	.	.	.	.	.	8g/L	-fi-
.	.	8c/	.	8e/	.	.	.	.	.	8e/	.
.	.	8d/J	.	8f/J	.	.	.	.	.	8f/J	.
.	.	8qqd/	.	8qqf/	.	.	.	.	.	8qqf/	.
4.C/	.	4.e/	.	4.g/	.	.	.	.	.	4.g\	-xus
=101	=101	=101	=101	=101	=101	=101	=101	=101	=101	=101	=101
!	!	!LO:TX:a:t=P:problem:mixed beam	!	!LO:TX:a:t=P:problem:mixed beam	!	!	!	!	!	!	!
4.GG/	.	8G`>/L	.	8G/L	.	1.ryy	.	1.ryy	.	4dd\	e-
.	.	(>8b\	.	8dd\	.	.	.	.	.	.	.
.	.	8cc\J)	.	8ee\J	.	.	.	.	.	8ee\	-ti-
!	!	!LO:TX:a:t=P:problem:mixed beam	!	!LO:TX:a:t=P:problem:mixed beam	!	!	!	!	!	!	!
4.GG/	.	8G`>/L	.	8G/L	.	.	.	.	.	4ff\	-am
.	.	(>8dd\	.	8ff\	.	.	.	.	.	.	.
.	.	8cc\J)	.	8ee\J	.	.	.	.	.	8ee\	pro
!	!	!	!	!LO:TX:a:t=P:problem:mixed beam	!	!	!	!	!	!	!
4G\	.	8G/L	.	8G/L	.	.	.	.	.	4dd\	no-
.	.	(8f/	.	8dd\	.	.	.	.	.	.	.
.	.	.	.	.	.	.	.	.	.	8qqcc/	.
8GG/	.	8d/J)	.	8b\J	.	.	.	.	.	8b\	.
.	.	8qqd/	.	8qqb/	.	.	.	.	.	8qqb/	.
8C/L	.	4.e#X/	.	4.cc\	.	.	.	.	.	4.cc\	-bis
8GG/	.	.	.	.	.	.	.	.	.	.	.
8C/J	.	.	.	.	.	.	.	.	.	.	.
=102	=102	=102	=102	=102	=102	=102	=102	=102	=102	=102	=102
8C/L	.	8ee\L	.	8gg\L	.	1.ryy	.	1.ryy	.	4.gg\	sub
8C/	.	8ee\	.	8gg\	.	.	.	.	.	.	.
8C/J	.	8ee\J	.	8gg\J	.	.	.	.	.	.	.
8C/L	.	8ee\L	.	8gg\L	.	.	.	.	.	(8gg\L	pon-
8C/	.	8ee\	.	8gg\	.	.	.	.	.	8ee\	.
8C/J	.	8ee\J	.	8gg\J	.	.	.	.	.	8cc\J)	.
!	!	!	!	!	!	!	!	!	!	!LO:LB:g=original	!
.	.	.	.	.	.	.	.	.	.	8qqcc/	.
8C/L	.	8gg\L	.	8bb-X\L	.	.	.	.	.	4b-X\	.
8C/	.	8gg\	.	8bb-\	.	.	.	.	.	.	.
8C/J	.	8gg\J	.	8bb-\J	.	.	.	.	.	8b-\	-ti-
.	.	.	.	.	.	.	.	.	.	8qqb-/	.
8F\L	.	8cc\L	.	8aa\L	.	.	.	.	.	4.a\	-o
8F\	.	8cc\	.	8aa\	.	.	.	.	.	.	.
8F\J	.	8cc\J	.	8aa\J	.	.	.	.	.	.	.
!LO:LB:g=original	!	!	!	!	!	!	!	!	!	!	!
=103	=103	=103	=103	=103	=103	=103	=103	=103	=103	=103	=103
8D\L	.	8ff\L	.	8aa\L	.	1.ryy	.	1.ryy	.	4.aa\	Pi-
8D\	.	8ff\	.	8aa\	.	.	.	.	.	.	.
8D\J	.	8ff\J	.	8aa\J	.	.	.	.	.	.	.
8D\L	.	8ff\L	.	8aa\L	.	.	.	.	.	8aa\L	-la-
8D\	.	8ff\	.	8aa\	.	.	.	.	.	8ff#X\	.
8D\J	.	8ff\J	.	8aa\J	.	.	.	.	.	8dd\J	.
.	.	.	.	.	.	.	.	.	.	8qqdd/	.
8D\L	.	8aa\L	.	8cccn\L	.	.	.	.	.	4.cc\	.
8D\	.	8aa\	.	8ccc\	.	.	.	.	.	.	.
8D\J	.	8aa\J	.	8ccc\J	.	.	.	.	.	.	.
.	.	.	.	.	.	.	.	.	.	8qqcc/	.
8G\L	.	8dd\L	.	8bbn\L	.	.	.	.	.	4.bn\	-to
8G\	.	8dd\	.	8bb\	.	.	.	.	.	.	.
8G\J	.	8dd\J	.	8bb\J	.	.	.	.	.	.	.
!	!	!	!	!LO:LB:g=original	!	!	!	!	!	!	!
=104	=104	=104	=104	=104	=104	=104	=104	=104	=104	=104	=104
8G\L	.	8b\L	.	8dd\L	.	1.ryy	.	1.ryy	.	4dd\	pas-
8G\	.	8b\	.	8dd\	.	.	.	.	.	.	.
8G\J	.	8b\J	.	8dd\J	.	.	.	.	.	8g\	-sus
!LO:TX:a:t=P:problem:mixed beam	!	!	!	!	!	!	!	!	!	!	!
8G\L	.	8dd\L	.	8ffn\L	.	.	.	.	.	4ffn\	et
8BB/	.	8dd\	.	8ff\	.	.	.	.	.	.	.
8C/J	.	8cc\J	.	8ff\J	.	.	.	.	.	8ee\	se-
4.G\	.	4.cc\	.	4.ee\	.	.	.	.	.	4ee\	-pul-
.	.	.	.	.	.	.	.	.	.	8ee\	-tus
.	.	8qqcc/	.	8qqee/	.	.	.	.	.	.	.
4.GG/	.	4.b\	.	4.dd\	.	.	.	.	.	4.dd\	est
!	!	!LO:LB:g=original	!	!	!	!	!	!	!	!	!
=105	=105	=105	=105	=105	=105	=105	=105	=105	=105	=105	=105
4C/	.	(8g/L	.	(8ee\L	.	1.ryy	.	1.ryy	.	(8ee\L	pas-
.	.	8e/)	.	8cc\)	.	.	.	.	.	8cc\J)	.
8c\	.	8g`/J	.	8ee`\J	.	.	.	.	.	8ee\	-ſus
4G\	.	(8f/L	.	(8dd\L	.	.	.	.	.	(8dd\L	et
.	.	8d/)	.	8b\)	.	.	.	.	.	8b\J)	.
8GG/	.	8f`/J	.	8dd`\J	.	.	.	.	.	8dd\	sa-
4C/	.	4e/	.	4cc\	.	.	.	.	.	4cc\	-pul-
8r	.	8cc\	.	8ee\	.	.	.	.	.	8ee\	-tus
8c\L	.	4.ee\	.	4.gg\	.	.	.	.	.	4.gg\	est
8G\	.	.	.	.	.	.	.	.	.	.	.
8E\J	.	.	.	.	.	.	.	.	.	.	.
=106	=106	=106	=106	=106	=106	=106	=106	=106	=106	=106	=106
4C/	.	(8g/L	.	(8ee\L	.	1.ryy	.	1.ryy	.	(8ee\L	se-
.	.	8e/)	.	8cc\)	.	.	.	.	.	8cc\	.
8c\	.	8g`/J	.	8ee`\J	.	.	.	.	.	8ee\J)	.
4G\	.	(8f/L	.	(8dd\L	.	.	.	.	.	(8dd\L	-pul-
.	.	8d/)	.	8b\)	.	.	.	.	.	8b\J)	.
8G\	.	8f`/J	.	8dd`\J	.	.	.	.	.	8dd\	-tus
.	.	.	.	.	.	.	.	.	.	8qqdd/	.
8c\L	.	(8e/L	.	8cc/L	.	.	.	.	.	4.cc\	esſ
8G\	.	8g/)	.	8g/	.	.	.	.	.	.	.
8E\J	.	8e`/J	.	8e/J	.	.	.	.	.	.	.
!	!	!LO:TX:b:t=Dacapo	!	!	!	!	!	!	!	!LO:N:vis=4	!
4C/	.	4.c/	.	4c/	.	.	.	.	.	4.r	.
!LO:TX:b:t=Dacapo	!	!	!	!LO:TX:b:t=Dacapo	!	!	!	!	!	!	!
8ryy	.	.	.	8r	.	.	.	.	.	.	.
!LO:LB:g=original	!	!LO:LB:g=original	!	!	!	!	!	!	!	!LO:LB:g=original	!
=107	=107	=107	=107	=107	=107	=107	=107	=107	=107	=107	=107
*k[f#]	*	*k[f#]	*	*k[f#]	*	*k[f#]	*	*k[f#]	*	*k[f#]	*
*M2/4	*	*M2/4	*	*M2/4	*	*M2/4	*	*M2/4	*	*M2/4	*
!LO:TX:b:t=Et Resurexit	!	!LO:TX:b:t=Et resurexit	!	!LO:TX:b:t=Etresurexit	!	!	!	!	!	!	!
!LO:TX:a:t=allo Tutti	!	!LO:TX:a:t=allo	!	!LO:TX:a:t=Allo	!	!LO:TX:a:t=allo.	!	!LO:TX:a:t=allo	!	!LO:TX:a:t=allo.	!
4G\	.	4g/	.	4g/	.	4G\	et	4G/	et	4g\	et
8D\L	.	8d/L	.	8d/L	.	8D\	re-	8D/	re-	8d/	re-
8D\J	.	8d/J	.	8d/J	.	8D\	-sur-	8D/	-sur-	8d/	-sur-
=108	=108	=108	=108	=108	=108	=108	=108	=108	=108	=108	=108
4G\	.	4g/	.	4g/	.	4G\	-re-	4G/	-re-	4g\	-re-
4D\	.	4d/	.	4d/	.	4D\	-xit	4D/	-xit	4d/	-xit
=109	=109	=109	=109	=109	=109	=109	=109	=109	=109	=109	=109
8G\L	.	8g/L	.	8g/L	.	8G\L	ter-	(8G\L	ter-	(8g\L	ter-
8A\	.	8a/	.	8a/	.	8A\J	.	8A\J)	.	8a\J)	.
8B\	.	8b/	.	8b/	.	8B\	-ti-	8B\	-ti-	8b\	-ti-
8c\J	.	8cc/J	.	8cc/J	.	8c\	-a	8c\	-a	8cc\	-a
=110	=110	=110	=110	=110	=110	=110	=110	=110	=110	=110	=110
8d\L	.	8dd\L	.	8dd\L	.	8d\	Di-	8d\	Di-	8dd\	Di-
8G\J	.	8g\J	.	8g\J	.	8G\	-e	8G\	-e	8g\	-e
4r	.	4r	.	4r	.	4r	.	4r	.	4r	.
=111	=111	=111	=111	=111	=111	=111	=111	=111	=111	=111	=111
8G\L	.	4cc\	.	4ee\	.	4G\	ſe-	4c\	Se-	4ee\	se-
8G\	.	.	.	.	.	.	.	.	.	.	.
8G\	.	(8ee\L	.	8gg\L	.	4G\	-cun-	4c\	-cun-	4ee\	-cun-
8G\J	.	8cc\J)	.	8ee\J	.	.	.	.	.	.	.
!	!	!	!	!LO:LB:g=original	!	!	!	!	!	!	!
=112	=112	=112	=112	=112	=112	=112	=112	=112	=112	=112	=112
8G\L	.	4ee\	.	4ccc\	.	4G\	-dum	4c\	-dum	4ee\	-dum
8G\	.	.	.	.	.	.	.	.	.	.	.
8G\	.	4cc\	.	4ee\	.	4G\	scri-	4c\	scri-	4ee\	scri-
8G\J	.	.	.	.	.	.	.	.	.	.	.
=113	=113	=113	=113	=113	=113	=113	=113	=113	=113	=113	=113
8G\L	.	4b\	.	4dd\	.	2G\	-ptu-	2B\	-ptu-	2dd\	-ptu-
8G\	.	.	.	.	.	.	.	.	.	.	.
8G\	.	(8dd\L	.	8gg\L	.	.	.	.	.	.	.
8G\J	.	8b\J)	.	8dd\J	.	.	.	.	.	.	.
=114	=114	=114	=114	=114	=114	=114	=114	=114	=114	=114	=114
8G\L	.	4dd\	.	4bb\	.	2G\	-raſ	2B\	-ras	2dd\	-ras
8G\	.	.	.	.	.	.	.	.	.	.	.
8G\	.	4b\	.	4dd\	.	.	.	.	.	.	.
8G\J	.	.	.	.	.	.	.	.	.	.	.
=115	=115	=115	=115	=115	=115	=115	=115	=115	=115	=115	=115
8D\L	.	4a\	.	4cc\	.	4D\	et	4A\	et	4cc\	et
8D\	.	.	.	.	.	.	.	.	.	.	.
8D\	.	(8cc\L	.	8ff#\L	.	4D\	as-	4A\	as-	4cc\	as-
8D\J	.	8a\J)	.	8cc\J	.	.	.	.	.	.	.
!	!	!	!	!	!	!LO:LB:g=original	!	!	!	!	!
=116	=116	=116	=116	=116	=116	=116	=116	=116	=116	=116	=116
8D\L	.	4cc\	.	4aa\	.	2D\	-cen-	2A\	-cen-	2cc\	-cen-
8D\	.	.	.	.	.	.	.	.	.	.	.
8D\	.	4a\	.	4cc\	.	.	.	.	.	.	.
8D\J	.	.	.	.	.	.	.	.	.	.	.
=117	=117	=117	=117	=117	=117	=117	=117	=117	=117	=117	=117
8G\L	.	8g/L	.	8b\L	.	4G\	.	(8G\L	.	8b\L	.
8G\	.	(16a/L	.	16cc\L	.	.	.	16A\L	.	(16cc\L	.
.	.	16b/JJ)	.	16dd\JJ	.	.	.	16B\JJ)	.	16dd\JJ)	.
8F#\	.	(8a/L	.	8cc\L	.	8F#\	-dit	8A\	-dit	8cc\	-dit
8G\J	.	8g/J)	.	8b\J	.	8G\	in	8G\	in	8b\	in
!	!	!	!	!	!	!	!	!LO:LB:g=original	!	!LO:LB:g=original	!
=118	=118	=118	=118	=118	=118	=118	=118	=118	=118	=118	=118
4d\	.	4g/	.	4b\	.	4d\	ce-	4G/	ce-	4b\	ce-
4D\	.	4f#/	.	4a\	.	4D\	-lum	4F#/	-lum	4a\	-lum
=119	=119	=119	=119	=119	=119	=119	=119	=119	=119	=119	=119
8A\L	.	4cc#X\	.	4ee\	.	4A\	se-	4c#X\	se-	4ee\	se-
8A\	.	.	.	.	.	.	.	.	.	.	.
8A\	.	8ee\L	.	8gg\L	.	8A\	-det	8e\	-det	8gg\	-det
8A\J	.	8ee\J	.	8gg\J	.	8A\	ad	8e\	ad	8gg\	ad
=120	=120	=120	=120	=120	=120	=120	=120	=120	=120	=120	=120
4d\	.	8dd\L	.	8ff#\L	.	8d\	dex-	8d\	dex-	8ff#\	dex-
.	.	8a\J	.	8dd\J	.	8d\	-te-	8A\	-te-	8dd\	-te-
!	!	!	!	!	!	!LO:TX:a:t=P:problem:po tej nucie znaczek na pięciolinii, może "p"?	!	!	!	!	!
4A\	.	4cc#X\	.	4ee\	.	4A\	-ram	4c#X\	-ram	4ee\	-ram
=121	=121	=121	=121	=121	=121	=121	=121	=121	=121	=121	=121
8A\L	.	4cc\	.	4ee\	.	16A\	dex-	4c\	dex-	4ee\	dex-
.	.	.	.	.	.	16A\	-te-	.	.	.	.
8A\	.	.	.	.	.	8A\	-ram	.	.	.	.
8A\	.	8ee\L	.	8gg\L	.	4ryy	.	8e\	-te-	8gg\	-te-
8A\J	.	8ee\J	.	8gg\J	.	.	.	8e\	-ram	8gg\	-ram
!LO:LB:g=original	!	!	!	!	!	!	!	!	!	!	!
=122	=122	=122	=122	=122	=122	=122	=122	=122	=122	=122	=122
4d\	.	8dd\L	.	8ff#\L	.	4d\	pa-	4d\	pa-	4ff#\	pa-
.	.	8a\J	.	8dd\J	.	.	.	.	.	.	.
4A\	.	4cc#X\	.	4ee\	.	4A\	-triſ	4c#X\	-triſ	4ee\	-tris
!	!	!LO:LB:g=original	!	!	!	!	!	!	!	!	!
=123	=123	=123	=123	=123	=123	=123	=123	=123	=123	=123	=123
8d\L	.	8dd\L	.	8dd\L	.	8d\L	se-	(8d\L	se-	(8dd\L	se-
8c#X\	.	8cc\	.	8cc#X\	.	8c#X\J	.	8c#X\J)	.	8cc#X\J)	.
8B\	.	8b\	.	8b\	.	8B\	-det	8B\	-det	8b\	-det
8A\J	.	8a\J	.	8a\J	.	8A\	ad	8A\	ad	8a\	ad
!	!	!	!	!	!	!LO:LB:g=original	!	!	!	!	!
=124	=124	=124	=124	=124	=124	=124	=124	=124	=124	=124	=124
8G\L	.	8g/L	.	8g/L	.	8G\L	dex-	(>8G/L	dex-	8g/L	dex-
8F#\	.	8f#/	.	8f#/	.	8F#\J	.	8F#/J)	.	8f#/J	.
8E\	.	8e/	.	8e/	.	8E\	-te-	8E/	-te-	8e/	-te-
8D\J	.	8d/J	.	8d/J	.	8D\	-ram	8D/	-ram	8d/	-ram
=125	=125	=125	=125	=125	=125	=125	=125	=125	=125	=125	=125
4G\	.	4g/	.	4g/	.	4G\	Pa-	(>4G/	pa-	4g\	pa-
4A\	.	4a/	.	4a/	.	4A\	.	4A/)	.	4a\	.
=126	=126	=126	=126	=126	=126	=126	=126	=126	=126	=126	=126
!	!	!	!	!LO:TX:a:t=P:problem:mixed beam	!	!	!	!	!	!	!
4D\	.	8d/L	.	8d/L	.	4D\	-triſ	4D/	-tris	4d/	-tris
.	.	8a/J	.	8b\J	.	.	.	.	.	.	.
8r	.	4dd\	.	4ff#\	.	4r	.	4r	.	4r	.
8d\	.	.	.	.	.	.	.	.	.	.	.
!	!	!	!	!	!	!	!	!LO:LB:g=original	!	!	!
=127	=127	=127	=127	=127	=127	=127	=127	=127	=127	=127	=127
!	!	!	!	!	!	!LO:N:vis=00	!	!LO:N:vis=00	!	!LO:N:vis=00	!
4D\	.	8dd\L	.	8ff#\L	.	0r	.	0r	.	0r	.
.	.	8a\J	.	8dd\J	.	.	.	.	.	.	.
8r	.	4ff#\	.	4aa\	.	.	.	.	.	.	.
8d\	.	.	.	.	.	.	.	.	.	.	.
!	!	!	!	!LO:LB:g=original	!	!	!	!	!	!	!
=128	=128	=128	=128	=128	=128	=128	=128	=128	=128	=128	=128
!	!	!LO:TX:a:t=P:problem:mixed beam	!	!	!	!	!	!	!	!	!
8D\L	.	8ff#\L	.	8aa\L	.	.	.	.	.	.	.
8D\	.	8a\	.	8ff#\	.	.	.	.	.	.	.
8G\	.	8b\	.	8ee\	.	.	.	.	.	.	.
8A\J	.	8e/J	.	8cc#X\J	.	.	.	.	.	.	.
=129	=129	=129	=129	=129	=129	=129	=129	=129	=129	=129	=129
!	!	!	!	!LO:TX:a:t=P:problem:mixed beam	!	!	!	!	!	!	!
4D\	.	8f#/L	.	8dd\L	.	.	.	.	.	.	.
.	.	8d/J	.	8d/J	.	.	.	.	.	.	.
8r	.	4d/	.	4f#/	.	.	.	.	.	.	.
8d\	.	.	.	.	.	.	.	.	.	.	.
=130	=130	=130	=130	=130	=130	=130	=130	=130	=130	=130	=130
4D\	.	8d/L	.	8f#/L	.	.	.	.	.	.	.
.	.	8A/J	.	8d/J	.	.	.	.	.	.	.
8r	.	4f#/	.	4a/	.	.	.	.	.	.	.
8d\	.	.	.	.	.	.	.	.	.	.	.
=131	=131	=131	=131	=131	=131	=131	=131	=131	=131	=131	=131
!	!	!	!	!	!	!LO:N:vis=00	!	!LO:N:vis=00	!	!LO:N:vis=00	!
8D\L	.	8f#/L	.	8a/L	.	0r	.	0r	.	0r	.
8D\	.	8a/	.	8f#/	.	.	.	.	.	.	.
8G\	.	8b/	.	8e/	.	.	.	.	.	.	.
8A\J	.	8e/J	.	8c#X/J	.	.	.	.	.	.	.
=132	=132	=132	=132	=132	=132	=132	=132	=132	=132	=132	=132
!	!	!LO:TX:a:t=P:problem:mixed beam	!	!	!	!	!	!	!	!	!
4D\	.	8f#/L	.	8d/L	.	.	.	.	.	.	.
.	.	(>8g/	.	8b/J	.	.	.	.	.	.	.
!	!	!	!	!LO:TX:a:t=P:problem:mixed beam	!	!	!	!	!	!	!
8r	.	8f#/	.	8a/L	.	.	.	.	.	.	.
8AA/	.	8ee\J)	.	8gg\J	.	.	.	.	.	.	.
=133	=133	=133	=133	=133	=133	=133	=133	=133	=133	=133	=133
!	!	!LO:TX:a:t=P:problem:mixed beam	!	!	!	!	!	!	!	!	!
4D\	.	8dd\L	.	8ff#\L	.	.	.	.	.	.	.
.	.	8g/	.	8b\	.	.	.	.	.	.	.
8r	.	8f#/	.	8a\	.	.	.	.	.	.	.
8AA/	.	8ee\J	.	8gg\J	.	.	.	.	.	.	.
=134	=134	=134	=134	=134	=134	=134	=134	=134	=134	=134	=134
!	!	!	!	!LO:TX:a:t=P:problem:mixed beam	!	!	!	!	!	!	!
8D\L	.	8dd\L	.	8ff#\L	.	.	.	.	.	.	.
8B\	.	8b\	.	8b/	.	.	.	.	.	.	.
8G\	.	8g\	.	8g/	.	.	.	.	.	.	.
8A\J	.	8a\J	.	8a/J	.	.	.	.	.	.	.
!	!	!	!	!	!	!	!	!	!	!LO:LB:g=original	!
=135	=135	=135	=135	=135	=135	=135	=135	=135	=135	=135	=135
!	!LO:DY:a	!	!LO:DY:a	!	!LO:DY:a	!LO:N:vis=00	!	!LO:N:vis=00	!	!LO:TX:a:t=Solo	!
4D\	p	8d/L	p	8d/L	p	0r	.	0r	.	8r	.
.	.	8f#/	.	8a/	.	.	.	.	.	8a\	et
8r	.	8g/	.	8b/	.	.	.	.	.	8b\	i-
8A\	.	8e/J	.	8cc#X/J	.	.	.	.	.	8cc#X\	-te-
!LO:LB:g=original	!	!	!	!	!	!	!	!	!	!	!
=136	=136	=136	=136	=136	=136	=136	=136	=136	=136	=136	=136
4D\	.	8f#/L	.	8dd\L	.	.	.	.	.	8dd\	-rum
.	.	8f#/	.	8a\	.	.	.	.	.	8a\	ven-
8r	.	8g/	.	8b\	.	.	.	.	.	8b\	-tu-
8A\	.	8e/J	.	8cc#X\J	.	.	.	.	.	8cc#X\	-ruſ
!	!	!LO:LB:g=original	!	!	!	!	!	!	!	!	!
=137	=137	=137	=137	=137	=137	=137	=137	=137	=137	=137	=137
!LO:TX:a:t=P:problem:mixed beam	!	!	!	!	!	!	!	!	!	!	!
8D\L	.	8f#/L	.	8dd\L	.	.	.	.	.	8dd\	est
8D\	.	8f#/J	.	8a\J	.	.	.	.	.	8a\	cum
.	.	8qqf#/	.	8qqa/	.	.	.	.	.	8qqa/	.
8A\	.	8.e/L	.	8.g/L	.	.	.	.	.	8.g\	glo-
8AA/J	.	.	.	.	.	.	.	.	.	.	.
.	.	16e/Jk	.	16g/Jk	.	.	.	.	.	16g\	-ri-
=138	=138	=138	=138	=138	=138	=138	=138	=138	=138	=138	=138
!	!	!	!LO:DY:a	!	!LO:DY:a	!	!	!	!	!	!
4D\	.	16d/LL	f	16f#/LL	f	.	.	.	.	4f#/	-a
.	.	16d/	.	16d/	.	.	.	.	.	.	.
.	.	16f#/	.	16f#/	.	.	.	.	.	.	.
.	.	16a/JJ	.	16a/JJ	.	.	.	.	.	.	.
4r	.	4dd\	.	4dd\	.	.	.	.	.	4r	.
=139	=139	=139	=139	=139	=139	=139	=139	=139	=139	=139	=139
!	!	!	!LO:DY:a	!	!LO:DY:a	!LO:N:vis=00	!	!LO:N:vis=00	!	!	!
8B\L	.	8dd#X\L	p	8ff#\L	p	0r	.	0r	.	8ff#\	ju-
8B\	.	8dd#\J	.	8ff#\J	.	.	.	.	.	8ff#\	-di-
8B\	.	16b\LL	.	16dd#X\LL	.	.	.	.	.	(16dd#X\LL	-ca-
.	.	16cc#X\J	.	16ee\J	.	.	.	.	.	16ee\JJ)	.
8B\J	.	8dd#\J	.	8ff#\J	.	.	.	.	.	8ff#\	-re
!	!	!	!	!LO:LB:g=original	!	!	!	!	!	!	!
=140	=140	=140	=140	=140	=140	=140	=140	=140	=140	=140	=140
16E\LL	.	4ee\	.	(4gg\	.	.	.	.	.	4gg\	vi-
16F#\	.	.	.	.	.	.	.	.	.	.	.
16G\	.	.	.	.	.	.	.	.	.	.	.
16A\JJ	.	.	.	.	.	.	.	.	.	.	.
4B\	.	4dd#X\	.	4ff#\)	.	.	.	.	.	4ff#\	-vos
=141	=141	=141	=141	=141	=141	=141	=141	=141	=141	=141	=141
8B\L	.	4dd\	.	4ff#\	.	.	.	.	.	4ff#\	vi-
8B\	.	.	.	.	.	.	.	.	.	.	.
8B\	.	16b\LL	.	16dd#X\LL	.	.	.	.	.	(16dd#X\LL	-vos
.	.	16cc#X\J	.	16ee\J	.	.	.	.	.	16ee\JJ)	.
8B\J	.	8dd#X\J	.	8ff#\J	.	.	.	.	.	8ff#\	et
=142	=142	=142	=142	=142	=142	=142	=142	=142	=142	=142	=142
16E\LL	.	4ee\	.	4gg\	.	.	.	.	.	8gg\	mor-
16F#\	.	.	.	.	.	.	.	.	.	.	.
16G\	.	.	.	.	.	.	.	.	.	8gg\	-tu-
16A\JJ	.	.	.	.	.	.	.	.	.	.	.
4B\	.	4dd#X\	.	4ff#\	.	.	.	.	.	4ff#\	-os
!	!	!	!	!	!	!	!	!	!	!LO:LB:g=original	!
=143	=143	=143	=143	=143	=143	=143	=143	=143	=143	=143	=143
!	!	!	!	!	!	!LO:N:vis=00	!	!LO:N:vis=00	!	!	!
4E\	.	(8g/L	.	8ee\L	.	0r	.	0r	.	(8ee\L	Cu-
.	.	8f#/)	.	8dd#X\	.	.	.	.	.	8dd#X\J)	.
8r	.	(8g/	.	8ee\	.	.	.	.	.	(8ee\L	-jus
8B\	.	8f#/J)	.	8dd#\J	.	.	.	.	.	8dd#X\J)	.
=144	=144	=144	=144	=144	=144	=144	=144	=144	=144	=144	=144
4E\	.	(8g/L	.	(8ee\L	.	.	.	.	.	(8ee\L	Re-
.	.	8f#/)	.	8dd#X\)	.	.	.	.	.	8dd#X\J)	.
8r	.	(8g/	.	(8ee\	.	.	.	.	.	8ee\	-gni
8B\	.	8f#/J)	.	8dd#\J)	.	.	.	.	.	8dd#X\	non
=145	=145	=145	=145	=145	=145	=145	=145	=145	=145	=145	=145
!LO:TX:a:t=P:problem:mixed beam	!	!	!	!	!	!	!	!	!	!	!
8G\L	.	8g/L	.	8ee\L	.	.	.	.	.	8ff#\	e-
8A\	.	8cc/J	.	8ff#\J	.	.	.	.	.	8ff#\	-rit
.	.	8qqg/	.	8qqee/	.	.	.	.	.	8qqee/	.
8B\	.	4f#/	.	4dd#X\	.	.	.	.	.	4dd#X\	fi-
8BB\J	.	.	.	.	.	.	.	.	.	.	.
=146	=146	=146	=146	=146	=146	=146	=146	=146	=146	=146	=146
4E\	.	8g/L	.	8ee\L	.	.	.	.	.	4ee\	-nis
.	.	16b/L	.	16b\L	.	.	.	.	.	.	.
.	.	16g/JJ	.	16g\JJ	.	.	.	.	.	.	.
4r	.	4e/	.	4e/	.	.	.	.	.	4r	.
=147	=147	=147	=147	=147	=147	=147	=147	=147	=147	=147	=147
!LO:TX:a:t=Tutti	!	!	!LO:DY:a	!	!LO:DY:a	!	!	!	!	!LO:TX:a:t=Tutti	!
4e\	.	4ee\	f	4ee\	f	4e\	et	4e\	et	4ee\	et
4B\	.	4b\	.	4b\	.	4B\	in	4B\	in	4b\	in
=148	=148	=148	=148	=148	=148	=148	=148	=148	=148	=148	=148
4e\	.	4ee\	.	4ee\	.	4e\	spi-	4e\	spi-	4ee\	spi-
4B\	.	4b\	.	4b\	.	8B\	-ri-	8B\	-ri-	8b\	-ri-
.	.	.	.	.	.	8B\	-tum	8B\	-tum	8b\	-tum
!	!	!LO:LB:g=original	!	!	!	!	!	!	!	!	!
=149	=149	=149	=149	=149	=149	=149	=149	=149	=149	=149	=149
8E\L	.	8e/L	.	8e/L	.	(8E\L	sa-	(8E/L	san-	(8e/L	san-
8F#\	.	8f#/	.	8f#/	.	8F#\J)	.	8F#/J)	.	8f#/J)	.
8G\	.	8g/	.	8g/	.	(8G\L	-ctum	(8G/L	-ctum	(8g/L	-ctum
8A\J	.	8a/J	.	8a/J	.	8A\J)	.	8A/J)	.	8a/J)	.
=150	=150	=150	=150	=150	=150	=150	=150	=150	=150	=150	=150
8B\L	.	8b/L	.	8b/L	.	16B\	Do-	16B\	Do-	16b\	Do-
.	.	.	.	.	.	16B\	-mi-	16B\	-mi-	16b\	-mi-
8E\	.	8e/J	.	8e/J	.	8E\	-num	8E/	-num	8e/	-num
8G\	.	4r	.	8r	.	4r	.	4r	.	4r	.
8E\J	.	.	.	8r	.	.	.	.	.	.	.
!LO:LB:g=original	!	!	!	!	!	!	!	!	!	!LO:PB:g=original	!
=151	=151	=151	=151	=151	=151	=151	=151	=151	=151	=151	=151
8A\L	.	16a\LL	.	16cc\LL	.	8A\	et	8F#/	et	8cc\	et
.	.	16a\	.	16cc\	.	.	.	.	.	.	.
8G\	.	16a\	.	16cc\	.	8G\	vi-	8G/	vi-	8cc\	vi-
.	.	16a\JJ	.	16cc\JJ	.	.	.	.	.	.	.
8F#\	.	16cc\LL	.	16aa\LL	.	8F#\	-vi-	8A/	-vi-	8cc\	-vi-
.	.	16cc\	.	16aa\	.	.	.	.	.	.	.
8E\J	.	16cc\	.	16aa\	.	8E\	-fi-	8G/	-fi-	8cc\	-fi-
.	.	16cc\JJ	.	16aa\JJ	.	.	.	.	.	.	.
!	!	!	!	!	!	!LO:LB:g=original	!	!	!	!	!
=152	=152	=152	=152	=152	=152	=152	=152	=152	=152	=152	=152
!LO:TX:a:t=P:problem:mixed beam	!	!	!	!	!	!	!	!	!	!	!
8D\L	.	16a/LL	.	16cc\LL	.	4D\	-can-	(8F#/L	-can-	4cc\	-can-
.	.	16a/	.	16cc\	.	.	.	.	.	.	.
8D\	.	16a/	.	16cc\	.	.	.	8A/J)	.	.	.
.	.	16a/JJ	.	16cc\JJ	.	.	.	.	.	.	.
8A\	.	16g/LL	.	16b\LL	.	4G\	-tem	4G/	-tem	4b\	-tem
.	.	16g/	.	16b\	.	.	.	.	.	.	.
8GG/J	.	16g/	.	16b\	.	.	.	.	.	.	.
!	!	!	!	!LO:TX:a:t=vi	!	!	!	!	!	!	!
.	.	16g/JJ	.	16b\JJ	.	.	.	.	.	.	.
!	!	!	!	!LO:LB:g=original	!	!	!	!	!	!	!
=153	=153	=153	=153	=153	=153	=153	=153	=153	=153	=153	=153
!	!	!	!	!LO:TX:a:t=De	!	!	!	!	!	!	!
4G\	.	4g/	.	4g/	.	4G\	qui	4G/	qui	4g\	qui
4D\	.	8d/L	.	8d/L	.	4D\	ex	4D/	ex	4d/	ex
.	.	8d/J	.	8d/J	.	.	.	.	.	.	.
=154	=154	=154	=154	=154	=154	=154	=154	=154	=154	=154	=154
4G\	.	4g/	.	4g/	.	4G\	Pa-	4G/	pa-	4g\	pa-
4D\	.	8d/L	.	8d/L	.	4D\	-tre	4D/	-tre	4d/	-tre
.	.	8d/J	.	8d/J	.	.	.	.	.	.	.
!	!	!	!	!	!	!	!	!LO:LB:g=original	!	!	!
=155	=155	=155	=155	=155	=155	=155	=155	=155	=155	=155	=155
8G\L	.	8g/L	.	8g/L	.	8G\	fi-	8G\	fi-	8g\	fi-
8A\	.	8a/	.	8a/	.	16A\	-li-	16A\	-li-	16a\	-li-
.	.	.	.	.	.	16A\	-o-	16A\	-o-	16a\	-o-
8B\	.	8b/	.	8b/	.	8B\	-que	8B\	-que	8b\	-que
8c\J	.	8cc/J	.	8cc/J	.	8c\	pro-	8c\	pro-	8cc\	pro-
=156	=156	=156	=156	=156	=156	=156	=156	=156	=156	=156	=156
!	!	!	!	!LO:TX:a:t=P:problem:mixed beam	!	!	!	!	!	!	!
8d\L	.	8dd\L	.	8dd\L	.	8d\	-ce-	8d\	-ce-	8dd\	-ce-
8G\	.	8g\J	.	8g/J	.	8G\	-dit	8G\	-dit	8g\	-dit
8D\	.	4r	.	4r	.	4r	.	4r	.	4r	.
8BB\J	.	.	.	.	.	.	.	.	.	.	.
=157	=157	=157	=157	=157	=157	=157	=157	=157	=157	=157	=157
!LO:TX:a:t=P:problem:mixed beam	!	!	!	!	!	!	!	!	!	!	!
8GG/L	.	4cc\	.	4ee\	.	4G\	Qui	4c\	qui	4ee\	qui
8G\	.	.	.	.	.	.	.	.	.	.	.
8G\	.	8ee\L	.	8gg\L	.	4G\	cum	4c\	cum	4ee\	cum
8G\J	.	8cc\J	.	8ee\J	.	.	.	.	.	.	.
=158	=158	=158	=158	=158	=158	=158	=158	=158	=158	=158	=158
8G\L	.	4ee\	.	4ccc\	.	4G\	pa-	4c\	pa-	4ee\	Pa-
8G\	.	.	.	.	.	.	.	.	.	.	.
8G\	.	4cc\	.	4ee\	.	8G\	-tre	8c\	-tre	8ee\	-tre
8G\J	.	.	.	.	.	8G\	et	8c\	et	8ee\	et
=159	=159	=159	=159	=159	=159	=159	=159	=159	=159	=159	=159
8G\L	.	4b\	.	4dd\	.	4G\	fi-	4B\	fi-	4dd\	fi-
8G\	.	.	.	.	.	.	.	.	.	.	.
8G\	.	8dd\L	.	8gg\L	.	4G\	-li-	4B\	-li-	4dd\	-li-
8G\J	.	8b\J	.	8dd\J	.	.	.	.	.	.	.
!	!	!	!	!	!	!	!	!	!	!LO:LB:g=original	!
=160	=160	=160	=160	=160	=160	=160	=160	=160	=160	=160	=160
8G\L	.	4dd\	.	4bb\	.	2G\	-o	2B\	-o	2dd\	-o
8G\	.	.	.	.	.	.	.	.	.	.	.
8G\	.	4b\	.	4dd\	.	.	.	.	.	.	.
8G\J	.	.	.	.	.	.	.	.	.	.	.
!	!	!LO:PB:g=original	!	!	!	!LO:LB:g=original	!	!	!	!	!
=161	=161	=161	=161	=161	=161	=161	=161	=161	=161	=161	=161
8D\L	.	4a\	.	4cc\	.	8D\	Si-	8A\	si-	8cc\	si-
8D\	.	.	.	.	.	8D\	-mul	8A\	-mul	8cc\	-mul
8D\	.	(8cc\L	.	8ff#\L	.	8D\	a-	8A\	a-	8cc\	a-
8D\J	.	8a\J)	.	8dd\J	.	8D\	-do-	8A\	-do-	8cc\	-do-
=162	=162	=162	=162	=162	=162	=162	=162	=162	=162	=162	=162
8D\L	.	4cc\	.	4aa\	.	4D\	-ra-	4A\	-ra-	4cc\	-ra-
8D\	.	.	.	.	.	.	.	.	.	.	.
8D\	.	4a\	.	4cc\	.	8D\	-tur	8A\	-tur	8cc\	-tur
8D\J	.	.	.	.	.	8D\	et	8A\	et	8cc\	et
!	!	!	!	!	!	!	!	!LO:LB:g=original	!	!	!
=163	=163	=163	=163	=163	=163	=163	=163	=163	=163	=163	=163
8G\L	.	8g/L	.	8b\L	.	8G\	con-	8G/	con	8b\	con-
8G\	.	(16a/L	.	16cc\L	.	8G\	-glo-	(16A\LL	glo-	(16cc\LL	-glo-
.	.	16b/JJ	.	16dd\JJ	.	.	.	16B\JJ)	.	16dd\JJ)	.
8F#\	.	8a/L)	.	8cc\L	.	8F#\	-ri-	8A\	-ri-	8cc\	-ri-
8G\J	.	8g/J	.	8b\J	.	8G\	-fi-	8G\	-fi-	8b\	-fi-
=164	=164	=164	=164	=164	=164	=164	=164	=164	=164	=164	=164
4d\	.	4g/	.	4b\	.	4d\	-ca-	4G/	-ca-	4b\	-ca-
4D\	.	4f#/	.	4a\	.	4D\	-tur	4F#/	-tur	4aT\	-tur
=165	=165	=165	=165	=165	=165	=165	=165	=165	=165	=165	=165
8D\L	.	16cc\LL	.	16aa\LL	.	8D\	qui	8F#/	qui	8a\	qui
.	.	16cc\	.	16aa\	.	.	.	.	.	.	.
8D\	.	16cc\	.	16aa\	.	8D\	lo-	8F#/	lo-	8a\	lo-
.	.	16cc\JJ	.	16aa\JJ	.	.	.	.	.	.	.
8D\	.	16a\LL	.	16cc\LL	.	8D\	-cu-	8A/	-cu-	8cc\	-cu-
.	.	16a\	.	16cc\	.	.	.	.	.	.	.
8D\J	.	16a\	.	16cc\	.	8D\	-tus	8A/	-tus	8cc\	-tus
.	.	16a\JJ	.	16cc\JJ	.	.	.	.	.	.	.
!LO:LB:g=original	!	!	!	!LO:LB:g=original	!	!	!	!	!	!	!
=166	=166	=166	=166	=166	=166	=166	=166	=166	=166	=166	=166
4GG/	.	16g/LL	.	16b/LL	.	4G\	eſt	4G/	est	4b\	est
.	.	16g/	.	16g/	.	.	.	.	.	.	.
.	.	16b/	.	16b/	.	.	.	.	.	.	.
.	.	16dd/JJ	.	16dd/JJ	.	.	.	.	.	.	.
!	!	!	!	!LO:TX:a:t=reX	!	!	!	!	!	!	!
4r	.	4gg\	.	4gg\	.	4r	.	4r	.	4r	.
=167	=167	=167	=167	=167	=167	=167	=167	=167	=167	=167	=167
!	!	!	!	!LO:TX:a:t=d	!	!	!	!	!	!	!
!	!	!	!	!LO:TX:a:t=Xtro	!	!	!	!	!	!	!
8G\L	.	16b\LL	.	16dd\LL	.	4G\	per	4B\	per	4dd\	per
!	!	!	!	!LO:TX:a:t=d	!	!	!	!	!	!	!
.	.	16b\	.	16dd\	.	.	.	.	.	.	.
!	!	!	!	!LO:TX:a:t=d	!	!	!	!	!	!	!
8G\	.	16b\	.	16dd\	.	.	.	.	.	.	.
!	!	!	!	!LO:TX:a:t=d	!	!	!	!	!	!	!
.	.	16b\JJ	.	16dd\JJ	.	.	.	.	.	.	.
8G\	.	16dd\LL	.	16ffn\LL	.	4G\	pro-	4d\	pro-	4ffn\	pro-
.	.	16dd\	.	16ff\	.	.	.	.	.	.	.
8G\J	.	16dd\	.	16ff\	.	.	.	.	.	.	.
.	.	16dd\JJ	.	16ff\JJ	.	.	.	.	.	.	.
!	!	!	!	!	!	!LO:LB:g=original	!	!	!	!	!
=168	=168	=168	=168	=168	=168	=168	=168	=168	=168	=168	=168
!LO:TX:a:t=P:problem:mixed beam	!	!	!	!	!	!	!	!	!	!	!
8C/L	.	4g/	.	4ee\	.	4c\	-phe-	4G/	-phe-	4eeT\	-phe-
8c\	.	.	.	.	.	.	.	.	.	.	.
8A\	.	8b/L	.	8ffn\L	.	8A\L	.	(8A/L	.	8ff#\L	.
8F#\J	.	8a/J	.	8dd\J	.	8Fn\J	.	8Fn/J)	.	8dd\J	.
!	!	!	!	!	!	!	!	!	!	!LO:LB:g=original	!
=169	=169	=169	=169	=169	=169	=169	=169	=169	=169	=169	=169
4G\	.	4e/	.	4cc\	.	4G\	.	(<4E/	.	4cc\	.
4GG/	.	4fn/	.	4dd\	.	4GG/	.	4B\)	.	4ddT\	.
=170	=170	=170	=170	=170	=170	=170	=170	=170	=170	=170	=170
!LO:TX:a:t=Solo	!	!LO:TX:a:t=P:problem:mixed beam	!	!	!	!	!	!	!	!	!
4C/	.	8e/L	.	8cc\L	.	4C/	-tas	4c\	-tas	4cc\	-tas
.	.	8fn/	.	8a\	.	.	.	.	.	.	.
8r	.	8e/	.	8g\	.	4r	.	4r	.	4r	.
8GG/	.	8dd\J	.	8ffn\J	.	.	.	.	.	.	.
=171	=171	=171	=171	=171	=171	=171	=171	=171	=171	=171	=171
!	!	!LO:TX:a:t=P:problem:mixed beam	!	!LO:TX:a:t=P:problem:mixed beam	!	!LO:N:vis=0	!	!LO:N:vis=00	!	!LO:N:vis=00	!
4C/	.	8cc\L	.	8ee\L	.	1r	.	0r	.	0r	.
.	.	8fn/	.	8a/	.	.	.	.	.	.	.
8r	.	8e/	.	8g/	.	.	.	.	.	.	.
8GG/	.	8dd\J	.	8ff#\J	.	.	.	.	.	.	.
=172	=172	=172	=172	=172	=172	=172	=172	=172	=172	=172	=172
!LO:TX:a:t=P:problem:mixed beam	!	!LO:TX:a:t=P:problem:mixed beam	!	!LO:TX:a:t=P:problem:mixed beam	!	!	!	!	!	!	!
8C/L	.	8cc\L	.	8ee\L	.	.	.	.	.	.	.
8c\	.	8cc\	.	8cc\	.	.	.	.	.	.	.
8F#\	.	8f#/	.	8f#/	.	.	.	.	.	.	.
8G\J	.	8g/J	.	8g/J	.	.	.	.	.	.	.
!	!	!LO:LB:g=original	!	!	!	!	!	!	!	!	!
=173	=173	=173	=173	=173	=173	=173	=173	=173	=173	=173	=173
!LO:TX:a:t=P:problem:mixed beam	!	!LO:TX:a:t=P:problem:mixed beam	!	!LO:TX:a:t=P:problem:mixed beam	!LO:DY:a	!	!	!	!	!	!
8C/L	.	8c/L	.	8c/L	.	8r	.	.	.	.	.
8c\	.	8cc\	p	8cc\	p	8c\	et	.	.	.	.
8c\	.	8cc\	.	8cc\	.	8c\	u-	.	.	.	.
8c\J	.	8cc\J	.	8cc\J	.	8c\	-nam	.	.	.	.
=174	=174	=174	=174	=174	=174	=174	=174	=174	=174	=174	=174
4c\	.	4cc\	.	4cc\	.	4c\	san-	.	.	.	.
8C/L	.	8c/L	.	8c/L	.	4C/	-ctam	.	.	.	.
8BB/J	.	8B/J	.	8B/J	.	.	.	.	.	.	.
=175	=175	=175	=175	=175	=175	=175	=175	=175	=175	=175	=175
!LO:TX:a:t=P:problem:mixed beam	!	!	!	!	!	!	!	!LO:N:vis=00	!	!LO:N:vis=00	!
8AA/L	.	8A/L	.	8A/L	.	8r	.	0r	.	0r	.
8A\	.	8a/	.	8a/	.	8A\	san-	.	.	.	.
8A\	.	8a/	.	8a/	.	8A\	-ctam	.	.	.	.
8A\J	.	8a/J	.	8a/J	.	8A\	cat-	.	.	.	.
=176	=176	=176	=176	=176	=176	=176	=176	=176	=176	=176	=176
!LO:TX:a:t=P:problem:mixed beam	!	!	!	!	!	!	!	!	!	!	!
8A\L	.	8a/L	.	8a/L	.	8.A\	-ho-	.	.	.	.
8AA/	.	8A/	.	8A/	.	.	.	.	.	.	.
.	.	.	.	.	.	16A\	-li-	.	.	.	.
8A\	.	8a/	.	8a/	.	4AA/	-cam	.	.	.	.
8G\J	.	8g/J	.	8g/J	.	.	.	.	.	.	.
=177	=177	=177	=177	=177	=177	=177	=177	=177	=177	=177	=177
8Fn\L	.	8fn/L	.	8fn/L	.	8r	.	.	.	.	.
8F\	.	8f/	.	8f/	.	8F#\	et	.	.	.	.
8F\	.	8f/	.	8f/	.	8F#\	a-	.	.	.	.
8F\J	.	8f/J	.	8f/J	.	8F#\	-po-	.	.	.	.
!	!	!	!	!	!	!LO:LB:g=original	!	!	!	!	!
=178	=178	=178	=178	=178	=178	=178	=178	=178	=178	=178	=178
8F#\L	.	8f#/L	.	8f#/L	.	8F#\	-sto-	.	.	.	.
8D\	.	8e/	.	8e/	.	8E\	-li-	.	.	.	.
8C\	.	8d/	.	8d/	.	8D\	-cam	.	.	.	.
8BB\J	.	8c/J	.	8c/J	.	8C/	e-	.	.	.	.
=179	=179	=179	=179	=179	=179	=179	=179	=179	=179	=179	=179
!LO:TX:a:t=P:problem:mixed beam	!	!	!	!	!	!	!	!LO:N:vis=00	!	!LO:N:vis=00	!
8G\L	.	8.g/L	.	8.g/L	.	8.G\	-cle-	0r	.	0r	.
8GG/J	.	.	.	.	.	.	.	.	.	.	.
.	.	16G/Jk	.	16G/Jk	.	16GG/	-si-	.	.	.	.
4GG/	.	4G/	.	4G/	.	4GG/	-am	.	.	.	.
=180	=180	=180	=180	=180	=180	=180	=180	=180	=180	=180	=180
4GG/	.	4b/	.	4dd\	.	4d\	con-	.	.	.	.
4GG/	.	(8g/L	.	8b\L	.	8B\	-fi-	.	.	.	.
.	.	8a/J)	.	8cc\J	.	8c\	-te-	.	.	.	.
!LO:LB:g=original	!	!	!	!LO:LB:g=original	!	!	!	!	!	!	!
=181	=181	=181	=181	=181	=181	=181	=181	=181	=181	=181	=181
4GG/	.	8b/L	.	8dd\L	.	(8d\L	-or	.	.	.	.
.	.	(8d/	.	(8b\	.	8B\J)	.	.	.	.	.
4GG/	.	8c/	.	8a\	.	(8A\L	.	.	.	.	.
.	.	8B/J)	.	8g\J)	.	8G\J)	u-	.	.	.	.
=182	=182	=182	=182	=182	=182	=182	=182	=182	=182	=182	=182
4GG/	.	4b/	.	4dd\	.	4d\	-nam	.	.	.	.
4GG/	.	(8g/L	.	8b\L	.	8B\L	Ba-	.	.	.	.
.	.	8a/J)	.	8cc\J	.	8c\J	.	.	.	.	.
=183	=183	=183	=183	=183	=183	=183	=183	=183	=183	=183	=183
!	!	!	!	!	!	!	!	!LO:N:vis=00	!	!LO:N:vis=00	!
4GG/	.	8b/L	.	8dd\L	.	8d\L	-pti-	0r	.	0r	.
.	.	(8d/	.	8b\	.	8B\J	.	.	.	.	.
4GG/	.	8c/	.	8a\	.	8A\L	-sma	.	.	.	.
.	.	8B/J)	.	8g\J	.	8G\J	.	.	.	.	.
=184	=184	=184	=184	=184	=184	=184	=184	=184	=184	=184	=184
4D\	.	4a/	.	4cc\	.	8c\	in	.	.	.	.
.	.	.	.	.	.	8c\	re-	.	.	.	.
4D\	.	(8f#X/L	.	8a\L	.	8A\	-miſ-	.	.	.	.
.	.	8a/J)	.	8b\J	.	8B\	-si-	.	.	.	.
!	!	!	!	!	!	!LO:LB:g=original	!	!	!	!	!
=185	=185	=185	=185	=185	=185	=185	=185	=185	=185	=185	=185
4D\	.	8a/L	.	8cc\L	.	8c\L	-o-	.	.	.	.
.	.	8c/	.	8a\	.	8A\J	.	.	.	.	.
4D\	.	(8B/	.	8g\	.	8G\L	-nem	.	.	.	.
.	.	8A/J)	.	8f#\J	.	8F#\J	.	.	.	.	.
=186	=186	=186	=186	=186	=186	=186	=186	=186	=186	=186	=186
4D\	.	4a/	.	4cc\	.	4c\	pec-	.	.	.	.
4D\	.	(8f#X/L	.	8a\L	.	8A\L	-ca-	.	.	.	.
.	.	8g/J)	.	8b\J	.	8B\J	.	.	.	.	.
!	!	!LO:LB:g=original	!	!	!	!	!	!	!	!	!
=187	=187	=187	=187	=187	=187	=187	=187	=187	=187	=187	=187
!	!	!	!	!	!	!	!	!LO:N:vis=0	!	!LO:N:vis=0	!
4D\	.	8a/L	.	8cc\L	.	8c\L	-to-	1r	.	1r	.
.	.	8c#X/	.	8a\	.	8A\J	.	.	.	.	.
4D\	.	(8B/	.	8g\	.	8G\L	-rum	.	.	.	.
.	.	8A/J)	.	8f#\J	.	8F#\J	.	.	.	.	.
=188	=188	=188	=188	=188	=188	=188	=188	=188	=188	=188	=188
8BB/L	.	8d/L	.	8b/L	.	8B\	pec-	.	.	.	.
8C/	.	8e/J	.	8a/J	.	8A\	-ca-	.	.	.	.
.	.	8qqB/	.	8qqa/	.	8qqG/	.	.	.	.	.
8D/	.	4A/	.	4g/	.	4F#\	-to-	.	.	.	.
8DD/J	.	.	.	.	.	.	.	.	.	.	.
=189	=189	=189	=189	=189	=189	=189	=189	=189	=189	=189	=189
4GG/	.	8B/L	.	8g/L	.	4F#\	-rum	2r	.	2r	.
.	.	16d/L	.	16d/L	.	.	.	.	.	.	.
.	.	16B/JJ	.	16B/JJ	.	.	.	.	.	.	.
4r	.	4G/	.	4G/	.	4r	.	.	.	.	.
!	!	!	!	!	!	!	!	!LO:LB:g=original	!	!	!
=190	=190	=190	=190	=190	=190	=190	=190	=190	=190	=190	=190
!LO:TX:a:t=Tutti	!	!	!	!	!	!	!	!	!	!	!
4G\	.	4gg 4b 4d 4G/	.	4gg 4b 4d 4G/	.	4G\	et	4d\	et	4b\	et
4d\	.	4ff# 4a 4d/	.	4ff# 4a 4d/	.	4d\	ex-	4d\	ex-	4a\	ex-
=191	=191	=191	=191	=191	=191	=191	=191	=191	=191	=191	=191
!LO:TX:a:t=P:problem:mixed beam	!	!	!	!	!	!	!	!	!	!	!
8G\L	.	8gg\L	.	8gg 8b 8d 8G/	.	8G\	-pec-	8d\	-pec-	8b\	pec-
8GG/J	.	16ff#\L	.	16ff#\LL	.	8G\	-to	8d\	-to	8b\	-to
.	.	16ee\JJ	.	16ee\JJ	.	.	.	.	.	.	.
4r	.	16dd\LL	.	16dd\LL	.	4r	.	4r	.	4r	.
.	.	16cc\	.	16cc\	.	.	.	.	.	.	.
.	.	16b\	.	16b\	.	.	.	.	.	.	.
.	.	16a\JJ	.	16a\JJ	.	.	.	.	.	.	.
=192	=192	=192	=192	=192	=192	=192	=192	=192	=192	=192	=192
!	!	!	!	!LO:TX:a:t=P:problem:mixed beam	!	!	!	!	!	!	!
4G\	.	8g/L	.	8g/L	.	8G\	re-	8d\	re-	8b\	re-
.	.	8b/	.	8aa\	.	8G\	-sur-	8d\	-sur-	8b\	-sur-
8d\L	.	8f#/	.	8a/	.	8D\	-re-	8d\	-re-	8a\	-re-
8D\J	.	8a/J	.	8gg\J	.	8D\	-cti-	8d\	-cti-	8a\	-cti-
!	!	!	!	!	!	!LO:PB:g=original	!	!	!	!	!
=193	=193	=193	=193	=193	=193	=193	=193	=193	=193	=193	=193
!LO:TX:a:t=P:problem:mixed beam	!	!	!	!LO:TX:a:t=P:problem:mixed beam	!	!	!	!	!	!	!
8G\L	.	4b\	.	8gg\L	.	8G\	-o-	8d\	-o-	8b\	-o-
8GG/J	.	.	.	8g/J	.	8G\	-nem	8d\	-nem	8b\	-nem
4r;	.	4r	.	4r;;	.	4r;	.	4r;	.	4r	.
=194	=194	=194	=194	=194	=194	=194	=194	=194	=194	=194	=194
!LO:TX:a:t=adagio	!	!LO:TX:a:t=adagio	!	!LO:TX:a:t=adagio	!	!LO:TX:a:t=adagio	!	!LO:TX:a:t=adagio	!	!LO:TX:a:t=adagio	!
8GG/L	.	8b\L	.	8gg\L	.	8GG/	mor-	8G/	mor-	8b\	mor-
8GG/	.	8g\J	.	8b\J	.	8GG/	-tu-	8G/	-tu-	8b\	-tu-
8C#X/	.	4g\	.	4b\	.	4C#X/	-o-	4G/	-o-	4b\	-o-
8C#/J	.	.	.	.	.	.	.	.	.	.	.
=195	=195	=195	=195	=195	=195	=195	=195	=195	=195	=195	=195
.	.	.	.	8qqb/	.	.	.	.	.	.	.
2D;\	.	2f#;/	.	2a;/	.	2D;\	-rum	2F#;/	-rum	2a;\	-rum
!	!	!	!	!LO:LB:g=original	!	!	!	!	!	!	!
=196	=196	=196	=196	=196	=196	=196	=196	=196	=196	=196	=196
!LO:TX:a:t=allo	!	!LO:TX:a:t=Allo	!	!LO:TX:a:t=allo	!	!LO:TX:a:t=allo.	!	!LO:TX:a:t=allo	!	!	!
4G\	.	4g/	.	4g/	.	4G\	et	4G/	et	4g/	et
8D\L	.	8d/L	.	8d/L	.	4D\	vi-	4D/	vi-	4d/	vi-
8D\J	.	8d/J	.	8d/J	.	.	.	.	.	.	.
=197	=197	=197	=197	=197	=197	=197	=197	=197	=197	=197	=197
4G\	.	4g/	.	4g/	.	4G\	-tam	4G/	-tam	4g/	-tam
4D\	.	4d/	.	4d/	.	4D\	ven-	4D/	ven-	4d/	ven-
!LO:LB:g=original	!	!	!	!	!	!	!	!	!	!LO:LB:g=original	!
=198	=198	=198	=198	=198	=198	=198	=198	=198	=198	=198	=198
8G\L	.	8g/L	.	8g/L	.	8G\L	-tu-	(8G\L	-tu-	(8g\L	-tu-
8A\	.	8a/	.	8a/	.	8A\J	.	8A\J)	.	8a\J)	.
8B\	.	8b/	.	8b/	.	8B\L	-ri	(8B\L	-ri	(8b\L	-ri
8c\J	.	8cc/J	.	8cc/J	.	8c\J	.	8c\J)	.	8cc\J)	.
=199	=199	=199	=199	=199	=199	=199	=199	=199	=199	=199	=199
8d\L	.	8dd\L	.	8dd\L	.	8d\	se-	8d\	se-	8dd\	se-
8G\J	.	8g\J	.	8g\J	.	16G\	-cu-	16B\	-cu-	16g\	-cu-
.	.	.	.	.	.	16G\	-li	16B\	.	16g\	-li
!	!	!	!	!	!	!	!	!LO:TX:a:t=P:problem:nuta wygląda jak półnuta z ósemkowym ogonkiem	!	!	!
!	!	!	!	!	!	!	!	!LO:N:vis=8	!	!	!
4r	.	4r	.	4r	.	4r	.	4F#	-li	4r	.
!	!	!	!	!	!	!	!	!LO:LB:g=original	!	!	!
=200	=200	=200	=200	=200	=200	=200	=200	=200	=200	=200	=200
8G\L	.	4cc\	.	4ee\	.	4G\	ven-	4c\	ven-	4ee\	ven-
8G\	.	.	.	.	.	.	.	.	.	.	.
8G\	.	8ee\L	.	8gg\L	.	8G\	-tu-	8c\	-tu-	8ee\	-tu-
8G\J	.	8cc\J	.	8ee\J	.	8G\	-ri	8c\	-ri	8ee\	-ri
!	!	!LO:LB:g=original	!	!	!	!LO:LB:g=original	!	!	!	!	!
=201	=201	=201	=201	=201	=201	=201	=201	=201	=201	=201	=201
8G\L	.	4ee\	.	4ccc\	.	4G\	se-	4c\	se-	4ee\	se-
8G\	.	.	.	.	.	.	.	.	.	.	.
8G\	.	4cc\	.	4ee\	.	8G\	-cu-	8c\	-cu-	8ee\	-cu-
8G\J	.	.	.	.	.	8G\	-li	8c\	-li	8ee\	-li
=202	=202	=202	=202	=202	=202	=202	=202	=202	=202	=202	=202
8G\L	.	4b\	.	4dd\	.	4G\	a-	4B\	a-	4dd\	a-
8G\	.	.	.	.	.	.	.	.	.	.	.
8G\	.	8dd\L	.	(8ff#\L	.	4G\	-men	4B\	-men	4dd\	-men
8G\J	.	8b\J	.	8dd\J)	.	.	.	.	.	.	.
=203	=203	=203	=203	=203	=203	=203	=203	=203	=203	=203	=203
8G\L	.	4dd\	.	4bb\	.	4G\	a-	4B\	a-	4dd\	a-
8G\	.	.	.	.	.	.	.	.	.	.	.
8G\	.	4b\	.	4dd\	.	4G\	-men	4B\	-men	4dd\	-men
8G\J	.	.	.	.	.	.	.	.	.	.	.
=204	=204	=204	=204	=204	=204	=204	=204	=204	=204	=204	=204
*	*	*	*	*	*	*	*	*	*ij	*	*ij
8D\L	.	4a\	.	4cc\	.	4D\	a-	4A\	a-	4cc\	a-
8D\	.	.	.	.	.	.	.	.	.	.	.
8D\	.	8cc\L	.	8ff#\L	.	4D\	-men	4A\	-men	4cc\	-men
8D\J	.	8a\J	.	8cc\J	.	.	.	.	.	.	.
=205	=205	=205	=205	=205	=205	=205	=205	=205	=205	=205	=205
8D\L	.	4cc\	.	4aa\	.	4D\	a-	4A\	a-	4cc\	a-
8D\	.	.	.	.	.	.	.	.	.	.	.
8D\	.	4a\	.	4cc\	.	4D\	-men	4A\	-men	4cc\	-men
*	*	*	*	*	*	*	*	*	*Xij	*	*Xij
8D\J	.	.	.	.	.	.	.	.	.	.	.
=206	=206	=206	=206	=206	=206	=206	=206	=206	=206	=206	=206
8G\L	.	8g/L	.	8b\L	.	4G\	a-	(8G\L	a-	8b\L	a-
8G\	.	16a/L	.	16cc\L	.	.	.	16A\L	.	(16cc\L	.
.	.	16b/JJ	.	16dd\JJ	.	.	.	16B\JJ)	.	16dd\JJ)	.
8F#\	.	8a/L	.	8cc\L	.	8F#\L	-men	8A\L	-men	8cc\L	-men
8G\J	.	8g/J	.	8b\J	.	8G\J	.	8G\J	.	8b\J	.
=207	=207	=207	=207	=207	=207	=207	=207	=207	=207	=207	=207
4d\	.	4g/	.	4b\	.	4d\	a-	4G/	a-	4b\	a-
4D\	.	4f#/	.	4a\	.	4D\	-men	4F#/	-men	4a\	-men
!	!	!	!	!	!	!	!	!	!	!LO:LB:g=original	!
=208	=208	=208	=208	=208	=208	=208	=208	=208	=208	=208	=208
4D\	.	4cc\	.	4aa\	.	4D\	ven-	4F#/	ven-	4a\	ven-
4F#\	.	4a\	.	4cc\	.	8F#\	-tu-	8A/	-tu-	8cc\	-tu-
.	.	.	.	.	.	8F#\	-ri	8A/	-ri	8cc\	-ri
=209	=209	=209	=209	=209	=209	=209	=209	=209	=209	=209	=209
4G\	.	8g/L	.	8b/L	.	8G\	se-	8G/	se-	8b\	se-
.	.	8d/J	.	8g/J	.	8G\	-cu-	8G/	-cu-	8b\	-cu-
4d\	.	4f#/	.	4a/	.	4d\	-li	4F#/	-li	4a\	-li
!	!	!	!	!LO:LB:g=original	!	!LO:LB:g=original	!	!LO:LB:g=original	!	!	!
=210	=210	=210	=210	=210	=210	=210	=210	=210	=210	=210	=210
4D\	.	4cc\	.	4aa\	.	4D\	se-	4F#/	se-	4a\	se-
4F#\	.	4a\	.	4cc\	.	8F#\	-cu-	8A/	-cu-	8cc\	-cu-
.	.	.	.	.	.	8F#\	-li	8A/	-li	8cc\	-li
=211	=211	=211	=211	=211	=211	=211	=211	=211	=211	=211	=211
4G\	.	8g/L	.	8b/L	.	4G\	a-	4G/	a-	4b\	a-
.	.	8d/J	.	8g/J	.	.	.	.	.	.	.
4d\	.	4f#/	.	4a/	.	4d\	-men	4F#/	-men	4a\	-men
!LO:LB:g=original	!	!	!	!	!	!	!	!	!	!	!
=212	=212	=212	=212	=212	=212	=212	=212	=212	=212	=212	=212
8G\L	.	8gg\L	.	8gg\L	.	8G\L	a-	(8g\L	a-	8gg\L	a-
8F#\	.	8ff#\	.	8ff#\	.	8F#\	.	8f#\	.	8ff#\	.
8E\	.	8ee\	.	8ee\	.	8E\	.	8e\	.	8ee\	.
8D\J	.	8dd\J	.	8dd\J	.	8D\J	.	8d\J)	.	8dd\J	.
=213	=213	=213	=213	=213	=213	=213	=213	=213	=213	=213	=213
8C/L	.	8cc\L	.	8cc\L	.	8C/L	.	(8c\L	.	8cc\L	.
8BB/	.	8b\	.	8b\	.	8BB/	.	8B\	.	8b\	.
8AA/	.	8a\	.	8a\	.	8AA/	.	8A\	.	8a\	.
8GG/J	.	8g\J	.	8g\J	.	8GG/J	.	8G\J)	.	8g\J	.
=214	=214	=214	=214	=214	=214	=214	=214	=214	=214	=214	=214
4C/	.	4cc\	.	4cc\	.	4C/	.	(4c\	.	4cc\	.
4D/	.	4dd\	.	4dd\	.	4D\	.	4d\)	.	4dd\	.
=215	=215	=215	=215	=215	=215	=215	=215	=215	=215	=215	=215
4GG/	.	4g/	.	4g/	.	4GG/	-men	4G/	-men	4g\	-men
4r	.	4f#/	.	4a/	.	4r	.	4F#/	a-	4a\	a-
=216	=216	=216	=216	=216	=216	=216	=216	=216	=216	=216	=216
4r	.	4g/	.	4b\	.	4r	.	4G/	-men	4b\	-men
4D\	.	4ff# 4a 4d/	.	4ff# 4a 4d/	.	4D\	a-	4A/	a-	4ff#\	a-
=217	=217	=217	=217	=217	=217	=217	=217	=217	=217	=217	=217
4GG/	.	4gg 4a 4d 4G/	.	4gg 4b 4d 4G/	.	4G\	-men	4B\	-men	4gg\	-men
4r	.	4r	.	4r	.	4r	.	4r	.	4r	.
==	==	==	==	==	==	==	==	==	==	==	==
*-	*-	*-	*-	*-	*-	*-	*-	*-	*-	*-	*-
!!!system-decoration: [g1][g2]
!!!RDF**kern: > = above
!!!RDF**kern: < = below
!!!RDF**dynam: p = "pia"
!!!RDF**dynam: f = "for"
!!!AIN: 2 empty 1 tenor 2 violn 1 vox
!!!ENC: Marta Lawrence
!!!END: 2020-09-16
!!!ENC: Berenika Jozajtis
!!!END: 2020-05-17
